!!!COM: Beethoven, Ludwig van
!!!CDT: 1770///-1827///
!!!ODT: 1825///
!!!OTL: String Quartet No. 15 in A Minor, Op. 132
!!!OPS: Op. 132
!!!OMV: Mvmt. 1
!!!OMD: Assai sostenuto
**kern	**dynam	**kern	**dynam	**kern	**dynam	**kern	**dynam
*staff4	*staff4	*staff3	*staff3	*staff2	*staff2	*staff1	*staff1
*Icello	*Icello	*Iviola	*Iviola	*Ivioln	*Ivioln	*Ivioln	*Ivioln
*clefF4	*clefF4	*clefC3	*clefC3	*clefG2	*clefG2	*clefG2	*clefG2
*k[]	*k[]	*k[]	*k[]	*k[]	*k[]	*k[]	*k[]
*a:	*a:	*a:	*a:	*a:	*a:	*a:	*a:
*M2/2	*M2/2	*M2/2	*M2/2	*M2/2	*M2/2	*M2/2	*M2/2
*MM110	*MM110	*MM110	*MM110	*MM110	*MM110	*MM110	*MM110
=1-	=1-	=1-	=1-	=1-	=1-	=1-	=1-
(2GG/	pp	1r	.	1r	.	1r	.
2AA/	.	.	.	.	.	.	.
=2	=2	=2	=2	=2	=2	=2	=2
2F\	.	(2A/	pp	2r	.	1r	.
2E\)	.	2G#/)	.	(2B/	pp	.	.
=3	=3	=3	=3	=3	=3	=3	=3
1r	.	(2c/	.	2A/	.	(2d#/	pp
.	.	2B/	.	2G#/) 2d/	.	2e/	.
=4	=4	=4	=4	=4	=4	=4	=4
1r	.	2D#/	<	2A/ 2f#/	.	2cc\	<
.	.	2E/)	>	2g#/	<	2b\)	>
=5	=5	=5	=5	=5	=5	=5	=5
(2F\	pp	(2b\	pp	(2d/	pp	(2gg#\	pp
2E\	.	2cc\)	.	2c/	.	2aa\	.
=6	=6	=6	=6	=6	=6	=6	=6
2GG#/	.	(2d\	.	2fn/	.	2bb\	.
2AA/)	.	2c\)	.	2e/) 2cc/	.	2ccc\)	.
=7	=7	=7	=7	=7	=7	=7	=7
(2DD#/	.	(2F#/	<	(2a/	.	(2ccc\	.
2EE/	<	2G#/)	>	2g#/)	<	2bb\)	<
=8	=8	=8	=8	=8	=8	=8	=8
2C/)	pp	(2A/	pp	(4f/	pp	(2dd#\	pp
.	.	.	.	4f#/	.	.	.
4BB/	<	4G#/)	<	4g#/	<	4ee\	<
4BB/	.	4G#/ 4B/	.	4d'/) 4dd'/	.	4ff\)	.
=9	=9	=9	=9	=9	=9	=9	=9
*met(C)	*met(C)	*met(C)	*met(C)	*met(C)	*met(C)	*met(C)	*met(C)
*M4/4	*M4/4	*M4/4	*M4/4	*M4/4	*M4/4	*M4/4	*M4/4
*MM120	*MM120	*MM120	*MM120	*MM120	*MM120	*MM120	*MM120
4BB'/	f	4G#'/ 4B'/	f	4d'/ 4dd'/	f	(16ff\LL	f
.	.	.	.	.	.	16ee\	.
.	.	.	.	.	.	16ddn\	.
.	.	.	.	.	.	16ff\JJ	.
4r	.	4r	.	4r	.	16dd\LL	.
.	.	.	.	.	.	16cc\	.
.	.	.	.	.	.	16b\	.
.	.	.	.	.	.	16dd\JJ	.
2r	.	2r	.	2r	.	16b/LL	.
.	.	.	.	.	.	16a/	.
.	.	.	.	.	.	16g#/	.
.	.	.	.	.	.	16b/JJ	.
.	.	.	.	.	.	16f/LL	.
.	.	.	.	.	.	16e/	.
.	.	.	.	.	.	16d/	.
.	.	.	.	.	.	16f/JJ	.
=10	=10	=10	=10	=10	=10	=10	=10
2r	.	2r	.	2r	.	16d/LL	.
.	.	.	.	.	.	16c/	.
.	.	.	.	.	.	16B/	.
.	.	.	.	.	.	16d/JJ	.
.	.	.	.	.	.	16B/LL	.
.	.	.	.	.	.	16A/	.
.	.	.	.	.	.	16G#/	.
.	.	.	.	.	.	16B/JJ	.
4r	.	4r	.	4r	.	16d/LL	.
.	.	.	.	.	.	16g#/	.
.	.	.	.	.	.	16b/	.
.	.	.	.	.	.	16dd/JJ	.
4C'/	p	4E'/	p	4e'/ 4a'/	p	8ff\L	p
.	.	.	.	.	.	8ee\J)	.
=11	=11	=11	=11	=11	=11	=11	=11
4r	.	1r	.	1r	.	[1ee	.
*clefC4	*clefG2	*	*	*	*	*	*
(8.a\L	.	.	.	.	.	.	.
16b\Jk	.	.	.	.	.	.	.
4cc\	.	.	.	.	.	.	.
8.b\L	.	.	.	.	.	.	.
16a\Jk)	.	.	.	.	.	.	.
=12	=12	=12	=12	=12	=12	=12	=12
(4a\	.	2r	.	2r	.	2ee\_	.
2.g#\)	.	.	.	.	.	.	.
.	.	4r	.	4r	.	(8ee\L]	.
.	.	.	.	.	.	8dd#\J)	.
.	.	(4E/	p	(4G#/	p	(12ddn\L	.
.	.	.	.	.	.	12cc\	.
.	.	.	.	.	.	12b\J)	.
=13	=13	=13	=13	=13	=13	=13	=13
1r	.	1F)	.	2A/	.	(4b/	.
.	.	.	.	.	.	8.a/L	.
.	.	.	.	.	.	16b/Jk	.
.	.	.	.	2d#/)	.	4cc/	.
.	.	.	.	.	.	8.b/L	.
.	.	.	.	.	.	16a/Jk)	.
=14	=14	=14	=14	=14	=14	=14	=14
1r	.	1E	.	1B	.	(4a/	.
.	.	.	.	.	.	2g#/	.
.	.	.	.	.	.	8.f/L	.
.	.	.	.	.	.	16e/Jk)	.
=15	=15	=15	=15	=15	=15	=15	=15
*clefF4	*clefF4	*	*	*	*	*	*
1GG#	p	[1E	.	1B 1dn	.	(4e/	.
.	.	.	.	.	.	8.f/L	.
.	.	.	.	.	.	16e/Jk)	.
.	.	.	.	.	.	(4e/	.
.	.	.	.	.	.	8.dd\L	.
.	.	.	.	.	.	16b\Jk)	.
=16	=16	=16	=16	=16	=16	=16	=16
(2.AA/	<	4E/]	<	2.c/	.	(4dd\	<
.	.	(8.B/L	.	.	.	2cc\	.
.	.	16G#/Jk	.	.	.	.	.
.	.	4B/	.	.	.	.	.
4BB/)	>	[4A/)	>	4r	.	8.ff\L	>
.	.	.	.	.	.	16dd#\Jk)	.
=17	=17	=17	=17	=17	=17	=17	=17
(4C/	<	4A/]	<	4r	.	(4ff\	<
2c\	.	2e\	.	(8.b-/L	<	2ee\	.
.	.	.	.	16g#/Jk	.	.	.
.	.	.	.	4b-/	.	.	.
4c#\)	>	4e\	>	4a/)	>	8.aa\L	>
.	.	.	.	.	.	16ee\Jk)	.
=18	=18	=18	=18	=18	=18	=18	=18
[2d\	.	2r	.	4r	.	(4gg\	.
.	.	.	.	(8.a/L	.	[4ff\)	<
.	.	.	.	16e/Jk	<	.	.
4d\]	.	4r	.	4gn/	.	(8.ff\L]	.
.	.	.	.	.	.	16ddn\Jk)	.
(8.d\L	<	[4B-/ [4d/	<	[4f/)	.	(8.dd\L	.
16B-\Jk)	.	.	.	.	.	16b-\Jk)	.
=19	=19	=19	=19	=19	=19	=19	=19
(8.B-\L	f	4B-/] 4d/]	f	4f/]	f	(8.b-/L	f
16F\Jk)	.	.	.	.	.	16f/Jk)	.
(8.F\L	.	(8.F/L	.	(8.f/L	.	(8.f/L	.
16D\Jk)	.	16D/Jk)	.	(16d/Jk)	.	16d/Jk)	.
(8.D/L	.	(8.D/L	.	8.d/L	.	(8.d/L	.
16BB-/Jk)	.	16B-/Jk)	.	16B-/Jk)	.	16B-/Jk)	.
(8.BB-/L	.	(8.B-/L	.	(8.B-/L	.	(8.B-/L	.
16AA/Jk)	.	16A/Jk)	.	16A/Jk)	.	16A/Jk)	.
=20	=20	=20	=20	=20	=20	=20	=20
4GG#'/	.	4G#'/	.	4G#'/	.	4G#'/	.
4GGn'/	.	4Gn'/	.	4cc#'\ 4ee'\	.	4A'/	.
4FF#'/	.	4F#'/	.	4dd'\	.	4a'/	.
4FFn'/	.	4Fn'/ 4A'/	.	4d#'/ 4a'/	.	(8aa\L	.
.	.	.	.	.	.	8bbn\J)	.
=21	=21	=21	=21	=21	=21	=21	=21
*MM40	*MM40	*MM40	*MM40	*MM40	*MM40	*MM40	*MM40
1EE	.	1A	.	1c 1e	.	(4ccc\	.
.	.	.	.	.	.	4ee\	<
.	.	.	.	.	.	4aa\	.
.	.	.	.	.	.	8ee\L	>
.	.	.	.	.	.	8cc\J)	.
=22	=22	=22	=22	=22	=22	=22	=22
4E\	p	4G#/	p	4e/	p	(16b/LL	p
.	.	.	.	.	.	16a/	.
.	.	.	.	.	.	16g#/	.
.	.	.	.	.	.	16b/JJ	.
4r	.	4r	.	4r	.	16f/LL	.
.	.	.	.	.	.	16e/	.
.	.	.	.	.	.	16d/	.
.	.	.	.	.	.	16f/JJ	.
2r	.	2r	.	2r	.	16d/LL	.
.	.	.	.	.	.	16c/	.
.	.	.	.	.	.	16B/	.
.	.	.	.	.	.	16d/JJ	.
.	.	.	.	.	.	16f/LL	.
.	.	.	.	.	.	16g#/	.
.	.	.	.	.	.	16b/	.
.	.	.	.	.	.	16dd/JJ)	.
=23	=23	=23	=23	=23	=23	=23	=23
4r	.	1r	.	4r	.	(1ff	.
(8.AA/L	p	.	.	(8.A/L	p	.	.
16BB/Jk	.	.	.	16B/Jk	.	.	.
4C/	.	.	.	4c/	.	.	.
8.BB/L	.	.	.	8.B/L	.	.	.
16AA/Jk)	.	.	.	16A/Jk)	.	.	.
=24	=24	=24	=24	=24	=24	=24	=24
(4AA/	.	2r	.	(4A/	.	1ee)	.
2.GG#/)	.	.	.	2.G#/)	.	.	.
.	.	4r	.	.	.	.	.
.	.	(8.F/L	p	.	.	.	.
.	.	16E/Jk)	.	.	.	.	.
=25	=25	=25	=25	=25	=25	=25	=25
1r	.	(4E/	.	(1G#	.	1r	.
.	.	8.F/L	.	.	.	.	.
.	.	16E/Jk)	.	.	.	.	.
.	.	(4E/	.	.	.	.	.
.	.	8.d\L	.	.	.	.	.
.	.	16B\Jk)	.	.	.	.	.
=26	=26	=26	=26	=26	=26	=26	=26
2r	.	(4d\	.	2.A/)	.	1r	.
.	.	2c\	.	.	.	.	.
4r	.	.	.	.	.	.	.
*clefC4	*clefC4	*	*	*	*	*	*
(8.f\L	.	4B/	.	[4a/	.	.	.
16d#\Jk)	.	.	.	.	.	.	.
=27	=27	=27	=27	=27	=27	=27	=27
(4f\	<	2.c\)	.	(4a/]	.	2r	.
2.e\)	>	.	.	8.b-/L	.	.	.
.	.	.	.	16g#/Jk	.	.	.
.	.	.	.	4b-/	.	4r	.
.	.	4c#\	.	4a/)	<	(8.aa\L	<
.	.	.	.	.	.	16ee\Jk)	>
=28	=28	=28	=28	=28	=28	=28	=28
4r	.	2.d\	.	2a/	>	(4gg\	.
(8.a\L	<	.	.	.	.	4ff\)	<
16e\Jk)	.	.	.	.	.	.	.
(8.g\L	.	.	.	2b-/	<	(8.bb-\L	.
16f\Jk)	.	.	.	.	.	16ff\Jk)	.
(8.f\L	.	4B-/ 4d/	<	.	.	(8.ff\L	.
16dn\Jk)	.	.	.	.	.	16dd\Jk)	.
=29	=29	=29	=29	=29	=29	=29	=29
*clefF4	*clefF4	*	*	*	*	*	*
(8.D/L	f	(8.d/L	f	(8.dd\L	f	(8.dd\L	f
16BB-/Jk)	.	16B-/Jk)	.	16b-\Jk)	.	16b-\Jk)	.
(8.BB-/L	.	(8.B-/L	.	(8.b-/L	.	(8.b-/L	.
16FF/Jk)	.	16F/Jk)	.	&(16f/Jk&))	.	16f/Jk)	.
(8.FF/L	.	(8.F/L	.	(8.f/L	.	(8.f/L	.
16DD/Jk)	.	16D/Jk)	.	16d/Jk)	.	16d/Jk)	.
(8.DD/L	.	(8.D/L	.	(8.d/L	.	(8.d/L	.
16DD-/Jk)	.	16B-/Jk)	.	16B-/Jk)	.	16B-/Jk)	.
=30	=30	=30	=30	=30	=30	=30	=30
1DD-	f	(4D-/	f	4B-/	f	1B-	f
.	.	8.G/L	.	4r	.	.	.
.	.	16A-/Jk	.	.	.	.	.
.	.	4B-/	.	2r	.	.	.
.	.	8.G/L	.	.	.	.	.
.	.	16F/Jk)	.	.	.	.	.
=31	=31	=31	=31	=31	=31	=31	=31
1CC	>	(4F/	.	1r	.	(4B-/	.
.	.	2.E/)	>	.	.	8.g/L	>
.	.	.	.	.	.	16a-/Jk	.
.	.	.	.	.	.	4b-/	.
.	.	.	.	.	.	8.g/L	.
.	.	.	.	.	.	16f/Jk)	.
=32	=32	=32	=32	=32	=32	=32	=32
1DD-	f	(4B-/	f	4r	.	(4f/	f
.	.	8.G/L	.	(8.g/L	f	2e/)	.
.	.	16A-/Jk	.	16a-/Jk	.	.	.
.	.	4B-/	.	4b-/	.	.	.
.	.	8.G/L	.	8.g/L	.	(4b-\	.
.	.	16F/Jk)	.	16f/Jk)	.	.	.
=33	=33	=33	=33	=33	=33	=33	=33
2.CC/	>	(4F/	>	(4f/	>	4bb-\	>
.	.	2E/)	.	2e/	.	8.gg\L	.
.	.	.	.	.	.	16aa-\Jk	.
.	.	.	.	.	.	4bb-\	.
4c\	.	4e\	.	4g/)	.	8.gg\L	.
.	.	.	.	.	.	16ff\Jk)	.
=34	=34	=34	=34	=34	=34	=34	=34
4r	.	4r	.	4r	.	(4ff\	p
4c\	p	4e\	p	4g/	p	8.ee\L	.
.	.	.	.	.	.	16bn\Jk)	.
4r	.	4r	.	4r	.	(4b\	.
4E\	.	4c\	.	4g/	.	8.cc\L	.
.	.	.	.	.	.	16b-\Jk)	.
=35	=35	=35	=35	=35	=35	=35	=35
4r	.	4r	.	4r	.	(4b-\	.
4F\	.	4c\	.	4an/	.	8.an\L	.
.	.	.	.	.	.	16aan\Jk)	.
4r	.	4r	.	4r	.	(4aa\	.
4AA/	.	4c\	.	4f/	.	8.gg\L	.
.	.	.	.	.	.	16ff\Jk)	.
=36	=36	=36	=36	=36	=36	=36	=36
4r	.	4r	.	4r	.	(12ff\L	.
.	.	.	.	.	.	12ee\	.
.	.	.	.	.	.	12ff\J	.
4C/	.	4G/	.	4c/ 4e/	.	12ff#\L	.
.	.	.	.	.	.	12gg\	.
.	.	.	.	.	.	12bn\J	.
4r	.	4r	.	4r	.	12dd\L	.
.	.	.	.	.	.	12cc\	.
.	.	.	.	.	.	12b\J	.
4e\	.	4cc\	.	4g/	.	12cc\L	.
.	.	.	.	.	.	12dd\	.
.	.	.	.	.	.	12b-\J)	.
=37	=37	=37	=37	=37	=37	=37	=37
4r	.	4r	.	4r	.	(16b-\LL	.
.	.	.	.	.	.	16a\	.
.	.	.	.	.	.	16g#\	.
.	.	.	.	.	.	16a\JJ	.
4f\	.	4a\	.	4cc\	.	16b-\LL	.
.	.	.	.	.	.	16bn\	.
.	.	.	.	.	.	16cc\	.
.	.	.	.	.	.	16cc#\JJ	.
4r	.	4r	.	4r	.	16dd\LL	.
.	.	.	.	.	.	16dd#\	.
.	.	.	.	.	.	16ee\	.
.	.	.	.	.	.	16ff\JJ	.
4A\	.	4f\	.	4cc\	.	16ggn\LL	.
.	.	.	.	.	.	16aa\	.
.	.	.	.	.	.	16gg\	.
.	.	.	.	.	.	16ff\JJ)	.
=38	=38	=38	=38	=38	=38	=38	=38
8B-'\L	<	(16d/LL	<	(16f/LL	<	(16ff\LL	<
.	.	16c#/	.	16e/	.	16ee\	.
8BB-'\	.	16d/	.	16f/	.	16ff\	.
.	.	16B-/JJ)	.	16d/JJ)	.	16dd\JJ)	.
8B-'\	.	8B-'/L	.	8d'/L	.	8dd'\L	.
8GG'\J	.	8B-'/J	.	8d'/J	.	8dd'\J	.
8G'\L	.	(16B-/LL	.	(16d/LL	.	(16dd\LL	.
.	.	16A/	.	16c#/	.	16cc#\	.
8GG'\	.	16B-/	.	16d/	.	16dd\	.
.	.	16G/JJ)	.	16B-/JJ)	.	16b-\JJ)	.
8G'\	.	8G'/L	.	8B-'/L	.	8bb-'\L	.
8EE'\J	.	8G'/J	.	8b-'/J	.	8bb-'\J	.
=39	=39	=39	=39	=39	=39	=39	=39
*k[b-]	*k[b-]	*k[b-]	*k[b-]	*	*	*k[b-]	*k[b-]
8C'/L	.	(16G/LL	.	(16b-/LL	.	(16bb-\LL	.
.	.	16F#/	.	16a/	.	16aa\	.
8CC'/	.	16G/	.	16b-/	.	16bb-\	.
.	.	16E/JJ)	.	16g/JJ)	.	16gg\JJ)	.
8C'/	.	8E'/L	.	8g'/L	.	8gg'\L	.
8C'/J	.	8E'/J	.	8g'/J	.	8gg'\J	.
8C'/L	.	(16E/LL	.	(16g/LL	.	(16gg\LL	.
.	.	16D#/	.	16f#/	.	16ff#\	.
8CC'/	.	16E/	.	16g/	.	16gg\	.
.	.	16C/JJ)	.	16e/JJ)	.	16ee\JJ)	.
8C'/	.	8C'/L	.	8e'/L	.	8ee'\L	.
8BB-'/J	f	8B-'/J	f	8g'/J	f	8ddd'\J	f
=40	=40	=40	=40	=40	=40	=40	=40
4B-'\	.	4d\	.	4g'/	.	4ddd'\	.
[2.A\	.	4c#'\	.	4e'/	.	8eee'\	.
.	.	.	.	.	.	16r	.
.	.	.	.	.	.	16e/	p
.	.	2r	.	2r	.	4a'/	.
.	.	.	.	.	.	4a'/	.
=41	=41	=41	=41	=41	=41	=41	=41
4..A\]	.	2r	.	4r	.	(4.a/	.
.	.	.	.	8.r	.	.	.
.	.	.	.	.	.	16g/LL	.
16A\	.	.	.	16fn/	p	16fn/JJ)	.
4d'\	.	[2A/	p	4b'/	.	8f'/L	.
.	.	.	.	.	.	8f'/J	.
4d'\	.	.	.	4b'/	.	(16f/LL	.
.	.	.	.	.	.	16g/J	.
.	.	.	.	.	.	8f/J)	.
=42	=42	=42	=42	=42	=42	=42	=42
*	*	*	*	*k[b-]	*k[b-]	*	*
(4d\	.	4..A/]	.	(4.b-/	.	(4f/	.
4c#\)	.	.	.	.	.	8e/)	.
.	.	.	.	16a/LL	.	16r	.
.	.	16e\	.	16g/JJ)	.	16ee\	.
8e'\L	.	4cc#'\	.	8g'/L	.	4aa'\	.
8e'\J	.	.	.	8g'/J	.	.	.
(16e\LL	.	8cc#'\	.	(16g/LL	.	4aa'\	.
16f\J	.	.	.	16a/J	.	.	.
8e\J)	.	16r	.	8g/J)	.	.	.
.	.	16a\	.	.	.	.	.
=43	=43	=43	=43	=43	=43	=43	=43
(4e\	.	4dd'\	.	(4g/	.	(4.aa\	.
4d\)	.	4dd'\	.	4f/)	.	.	.
.	.	.	.	.	.	16gg\LL	.
.	.	.	.	.	.	16ff\JJ)	.
4G'\	.	8dd'\L	.	8Bn'/L	.	8ff'\L	.
.	.	8dd'\J	.	8bn'/J	.	8ff'\J	.
4G'\	.	(16dd\LL	.	(16b/LL	.	(16ff\LL	.
.	.	16ccn\J	.	16a/J	.	16gg\J	.
.	.	8dd\J)	.	8b/J)	.	8ff\J)	.
=44	=44	=44	=44	=44	=44	=44	=44
(8Cn\L	.	(8G/L	<	(8cc/L	.	(8.ff\L	.
8B-\J)	<	8C/J)	.	8g/J)	<	.	.
.	.	.	.	.	.	16dd#\Jk)	<
(8C\L	.	(8g\L	.	(8cc/L	.	(8.ee\L	.
8B-\J)	.	8c\J)	.	8g/J)	.	.	.
.	.	.	.	.	.	16gg\Jk)	.
(8C\L	.	(8f\L	.	(8cc/L	.	(8.gg\L	.
8A\J)	.	8c\J)	.	8f/J)	.	.	.
.	.	.	.	.	.	16ff\Jk)	.
(8C\L	.	(8a\L	.	(8cc/L	.	(8.ff\L	.
8A\J)	.	8A\J)	.	8c/J)	.	.	.
.	.	.	.	.	.	16ff#\Jk)	.
=45	=45	=45	=45	=45	=45	=45	=45
(8C\L	.	(8g\L	.	(8cc/L	.	(8.ff#\L	.
8E\J)	.	8c\J)	.	8g/J)	.	.	.
.	.	.	.	.	.	16gg\Jk)	.
(8C\L	.	(8c/L	.	(8g/L	.	(8.gg\L	.
8E\J)	.	8G/J)	.	8c/J)	.	.	.
.	.	.	.	.	.	16gg#\Jk)	.
(8C\L	.	(8c/L	.	8f/L	.	(8.gg#\L	.
8F\J)	.	8F/J)	.	&(8c/J&)	.	.	.
.	.	.	.	.	.	16aa\Jk)	.
(8E-\L	.	(8f\L	.	(8a/L	.	(8.aa\L	.
8F\J)	.	8A\J)	.	8f/J)	.	.	.
.	.	.	.	.	.	16bb-\Jk)	.
=46	=46	=46	=46	=46	=46	=46	=46
(8D\L	.	(8f\L	.	(8b-/L	.	(8.bb-\L	.
8F\J)	.	8d\J)	.	8f/)	.	.	.
.	.	.	.	.	.	16bbn\Jk)	.
(8AA\L	.	(8f\L	.	(8cc/	.	(8.bb\L	.
8F\J)	.	8c\J)	.	8f/J)	.	.	.
.	.	.	.	.	.	16ccc\Jk)	.
(8BB-\L	.	(8f\L	.	(8b-/L	.	(8.ccc\L	.
8F\J)	.	8B-\J)	.	8f/J)	.	.	.
.	.	.	.	.	.	16ccc#\Jk)	.
(8BB-\L	.	(8B-/L	.	(8f/L	.	(8.ccc#\L	.
8F\J)	.	8F/J)	.	8B-/J)	.	.	.
.	.	.	.	.	.	16ddd\Jk)	.
=47	=47	=47	=47	=47	=47	=47	=47
(8BB-\L	.	(8d/L	.	(8f/L	.	(8.ddd\L	.
8F\J)	.	8F/J)	.	8d/)	.	.	.
.	.	.	.	.	.	16eee\Jk)	.
(8BBn\L	.	(8d/L	.	(8g/	.	(8.eee\L	.
8G\J)	.	8G/J)	.	8d/J)	.	.	.
.	.	.	.	.	.	16fff\Jk)	f
(8C\L	f	(8f/L	.	(8a/L	.	(8.fff\L	.
8A\J)	.	&(8A/J&))	f	8f/)	f	.	.
.	.	.	.	.	.	16ff\Jk)	.
(8C\L	>	(8B-/L	>	(8e/	>	(8.aa\L	.
8B-\J)	.	8E/J)	.	8G/J)	.	.	.
.	.	.	.	.	.	16gg\Jk)	>
=48	=48	=48	=48	=48	=48	=48	=48
4FF/	p	12r	p	2r	.	1r	.
.	.	12D/L	.	.	.	.	.
.	.	12C/J	.	.	.	.	.
12r	.	4A/	.	.	.	.	.
12D/L	.	.	.	.	.	.	.
12C/J	.	.	.	.	.	.	.
4FF/	.	12r	.	8r	.	.	.
.	.	12D/L	.	.	.	.	.
.	.	.	.	(8f/L	p	.	.
.	.	12C/J	.	.	.	.	.
12r	.	4A/	.	8g/	.	.	.
12D/L	.	.	.	.	.	.	.
.	.	.	.	8a/J)	.	.	.
12C/J	.	.	.	.	.	.	.
=49	=49	=49	=49	=49	=49	=49	=49
4EE/	.	12r	.	(4..b-\	.	8r	.
.	.	12D/L	.	.	.	.	.
.	.	.	.	.	.	(8gg\L	p
.	.	12C/J	.	.	.	.	.
12r	.	4c/	.	.	.	8aa\	.
12D/L	.	.	.	.	.	.	.
.	.	.	.	.	.	8bb-\J)	.
12C/J	.	.	.	.	.	.	.
.	.	.	.	16a/)	.	.	.
4EE/	.	12r	.	(4g'/	.	2r	.
.	.	12D/L	.	.	.	.	.
.	.	12C/J	.	.	.	.	.
12r	.	4c/	.	4g'/)	.	.	.
12D/L	.	.	.	.	.	.	.
12C/J	.	.	.	.	.	.	.
=50	=50	=50	=50	=50	=50	=50	=50
4FF/	.	12r	.	(4b-\	.	8r	.
.	.	12D/L	.	.	.	.	.
.	.	.	.	.	.	(8gg\L	.
.	.	12C/J	.	.	.	.	.
12r	.	4c/	.	8a/L	.	8aa\	.
12D/L	.	.	.	.	.	.	.
.	.	.	.	8g/J	.	8bb-\J)	.
12C/J	.	.	.	.	.	.	.
4FF/	.	12r	.	4f/	.	4r	.
.	.	12D/L	.	.	.	.	.
.	.	12C/J	.	.	.	.	.
12r	.	4A/	.	8g/L	.	4aa\	.
12D/L	.	.	.	.	.	.	.
.	.	.	.	8a/J)	.	.	.
12C/J	.	.	.	.	.	.	.
=51	=51	=51	=51	=51	=51	=51	=51
4GG/	.	12r	.	(4.g/	.	1r	.
.	.	12D/L	.	.	.	.	.
.	.	12C/J	.	.	.	.	.
12r	.	4G/	.	.	.	.	.
12D/L	.	.	.	.	.	.	.
.	.	.	.	8e/)	.	.	.
12C/J	.	.	.	.	.	.	.
4GG/	.	12r	.	(4.f/	.	.	.
.	.	12E/L	.	.	.	.	.
.	.	12D/J	.	.	.	.	.
12r	.	4G/	.	.	.	.	.
12E\L	.	.	.	.	.	.	.
.	.	.	.	8Bn/)	.	.	.
12D\J	.	.	.	.	.	.	.
=52	=52	=52	=52	=52	=52	=52	=52
4C/	.	12r	.	4c/	.	8r	.
.	.	12F/L	.	.	.	.	.
.	.	.	.	.	.	(8bn\L	.
.	.	12E/J	.	.	.	.	.
12r	.	4c\	.	4r	.	8cc\	.
12A\L	.	.	.	.	.	.	.
.	.	.	.	.	.	8ee\J	.
12G\J	.	.	.	.	.	.	.
4C/	.	12r	.	2r	.	8gg\L	.
.	.	12A/L	.	.	.	.	.
.	.	.	.	.	.	8bbn\	.
.	.	12G/J	.	.	.	.	.
12r	.	4e\	.	.	.	8ccc\	.
12C/L	.	.	.	.	.	.	.
.	.	.	.	.	.	8ddd\J)	.
12BB-/J	.	.	.	.	.	.	.
=53	=53	=53	=53	=53	=53	=53	=53
4AA/	.	12r	.	2r	.	(4..eee-\	<
.	.	12g\L	.	.	.	.	.
.	.	12f\J	.	.	.	.	.
12r	.	4cc\	.	.	.	.	.
12G\L	.	.	.	.	.	.	.
12F\J	.	.	.	.	.	.	.
.	.	.	.	.	.	16ddd\)	.
4AA/	<	12r	.	2f/	<	(4ccc#'\	.
.	.	12B-/L	<	.	.	.	.
.	.	12A/J	.	.	.	.	.
12r	.	4f\	.	.	.	4ccc#'\)	.
12G\L	.	.	.	.	.	.	.
12F\J	.	.	.	.	.	.	.
=54	=54	=54	=54	=54	=54	=54	=54
4BB-/	>	12r	>	2B-/	>	(4eee-\	>
.	.	12c/L	.	.	.	.	.
.	.	12B-/J	.	.	.	.	.
12r	.	4f\	.	.	.	8ddd\L	.
12G\L	.	.	.	.	.	.	.
.	.	.	.	.	.	8cccn\J	.
12F\J	.	.	.	.	.	.	.
4BB-/	.	12r	.	2dd\	.	4bb-\	.
.	.	12c/L	.	.	.	.	.
.	.	12B-/J	.	.	.	.	.
12r	.	4f\	.	.	.	8ccc\L	.
12G\L	.	.	.	.	.	.	.
.	.	.	.	.	.	8ddd\J)	.
12F\J	.	.	.	.	.	.	.
=55	=55	=55	=55	=55	=55	=55	=55
4C/	p	12r	.	8r	.	(4.ccc\	.
.	.	12B-/L	p	.	.	.	.
.	.	.	.	(16g/LL	p	.	.
.	.	12A/J	.	.	.	.	.
.	.	.	.	16f/JJ	.	.	.
12r	.	4f\	.	16e/LL	.	.	.
.	.	.	.	16f/	.	.	.
12G\L	.	.	.	.	.	.	.
.	.	.	.	16g/	.	8aa\)	.
12F\J	.	.	.	.	.	.	.
.	.	.	.	16f/JJ)	.	.	.
4C/	.	12r	.	8r	.	(4.bb-\	.
.	.	12c/L	.	.	.	.	.
.	.	.	.	(16f/LL	.	.	.
.	.	12B-/J	.	.	.	.	.
.	.	.	.	16e/JJ	.	.	.
12r	.	4B-\ 4g\	.	16d/LL	.	.	.
.	.	.	.	16e/	.	.	.
12A\L	.	.	.	.	.	.	.
.	.	.	.	16f/	.	8een\)	.
12G\J	.	.	.	.	.	.	.
.	.	.	.	16e/JJ)	.	.	.
=56	=56	=56	=56	=56	=56	=56	=56
(4.C/	.	4r	.	12r	.	8r	.
.	.	.	.	12dd\L	.	.	.
.	.	.	.	.	.	(16gg\LL	.
.	.	.	.	12cc\J	.	.	.
.	.	.	.	.	.	16ff\JJ	.
.	.	12r	.	4f/	.	16ee\LL	.
.	.	.	.	.	.	16ff\	.
.	.	12d\L	.	.	.	.	.
8AA/)	.	.	.	.	.	16gg\	.
.	.	12c\J	.	.	.	.	.
.	.	.	.	.	.	16ff\JJ	.
(4.BB-/	.	4G/	.	12r	.	16ee\LL	.
.	.	.	.	.	.	16gg\	.
.	.	.	.	12dd\L	.	.	.
.	.	.	.	.	.	16aa\	.
.	.	.	.	12cc\J	.	.	.
.	.	.	.	.	.	16bb-\JJ	.
.	.	12r	.	4g/	.	16ccc\LL	.
.	.	.	.	.	.	16ccc#\	.
.	.	12d\L	.	.	.	.	.
8EE/)	.	.	.	.	.	16ddd\	.
.	.	12c\J	.	.	.	.	.
.	.	.	.	.	.	16bb-\JJ)	.
=57	=57	=57	=57	=57	=57	=57	=57
(8FF/L	.	(4a\	.	(4c/	.	(4aa\	.
16GG/L	.	.	.	.	.	.	.
16FF/JJ	.	.	.	.	.	.	.
8EE/L	.	4b-\	.	4B-/	.	4gg\	.
16FF/L	.	.	.	.	.	.	.
16GG/JJ	.	.	.	.	.	.	.
8AA/L	.	4cc\	.	4A/	.	4ff\	.
16BB-/L	.	.	.	.	.	.	.
16AA/JJ	.	.	.	.	.	.	.
8GG/L	.	4e\)	.	4ee\)	.	4cc\)	.
16AA/L	.	.	.	.	.	.	.
16BB-/JJ)	.	.	.	.	.	.	.
=58	=58	=58	=58	=58	=58	=58	=58
(4AA/	.	(4c/	.	(4cc\	.	(8ff\L	.
.	.	.	.	.	.	16gg\L	.
.	.	.	.	.	.	16ff\JJ	.
4GG/	.	4B-/	.	4ee\	.	8ee\L	.
.	.	.	.	.	.	16ff\L	.
.	.	.	.	.	.	16gg\JJ	.
4FF/	.	4A/	.	4ff\	.	8aa\L	.
.	.	.	.	.	.	16bb-\L	.
.	.	.	.	.	.	16aa\JJ	.
8CC/L	.	4E/)	.	4gg\)	.	8gg\L	.
8C/J)	.	.	.	.	.	16aa\L	.
.	.	.	.	.	.	16bb-\JJ)	.
=59	=59	=59	=59	=59	=59	=59	=59
8FF/L	<	8C/L	<	8aa\L	<	[4ccc\	<
(16FF/L	.	(16A/L	.	(16aa\L	.	.	.
16GG/JJ	.	16B-/JJ	.	16gg\JJ	.	.	.
8AA/L	.	8c\L	.	[4ff\)	.	8ccc\L]	.
16BB-/L	.	16d\L	.	.	.	16ccc\L	.
16C/JJ	.	16e\JJ	.	.	.	16bb-\JJ	.
8D\L)	.	8f\L)	.	8ff\L]	.	[4aa\	.
(16D\L	.	(16f\L	.	(16ff\L	.	.	.
16E\JJ	.	16g\JJ	.	16ee\JJ	.	.	.
[4F\)	.	16a\LL	.	[4dd\)	.	8aa\L]	.
.	.	16g\	.	.	.	.	.
.	.	16f\	.	.	.	(16aa\L	.
.	.	16e\JJ)	.	.	.	16gg\JJ	.
=60	=60	=60	=60	=60	=60	=60	=60
(8F\L]	.	(16d\LL	.	8dd\L]	.	[4ff\)	.
.	.	16A\	.	.	.	.	.
16G\L	.	16B-\	.	(16dd\L	.	.	.
16A\JJ	.	16c\JJ	.	16cc\JJ	.	.	.
[4B-\)	.	16d\LL	.	[4b-\)	.	8ff\L]	.
.	.	16e\	.	.	.	.	.
.	.	16d\	.	.	.	(16ff\L	.
.	.	16c\JJ	.	.	.	16ee\JJ	.
8B-\L]	.	8B-\L)	.	8b-/L]	.	8dd'\L)	.
16BB-\L	.	16b-\L	.	16d/L	.	16ddd\L	.
16C\JJ	.	16a\JJ	.	16e/JJ	.	16ccc\JJ	.
16D\LL	.	16g\LL	.	16f/LL	.	16bb-\LL	.
16E\	.	16f\	.	16g/	.	16aa\	.
16F\	.	16e\	.	16a/	.	16gg\	.
16G\JJ	.	16d\JJ	.	16b-/JJ	.	16ff\JJ	.
=61	=61	=61	=61	=61	=61	=61	=61
16B-\LL	f	16c\LL	f	16cc\LL	f	16ee\LL	f
16A\	.	16d\	.	16dd\	.	16ff\	.
16G\	.	16e\	.	16ee\	.	16gg\	.
16F\JJ	.	16f\JJ	.	16ff\JJ	.	16aa\JJ	.
16E\LL	.	16g\LL	.	16gg\LL	.	16bb-\LL	.
16F\	.	16f\	.	16ff\	.	16aa\	.
16G\	.	16e\	.	16ee\	.	16gg\	.
16A\JJ	.	16d\JJ	.	16dd\JJ	.	16ff\JJ	.
16B-\LL	.	16c\LL	.	16cc\LL	.	16ee\LL	.
16A\	.	16d\	.	16dd\	.	16ff\	.
16G\	.	16e\	.	16ee\	.	16gg\	.
16F\JJ	.	16f\JJ	.	16ff\JJ	.	16aa\JJ	.
16E\LL	.	16g\LL	.	16gg\LL	.	16bb-\LL	.
16D\	.	16a\	.	16aa\	.	16ccc\	.
16C\	.	16b-\	.	16bb-\	.	16ddd\	.
16BB-\JJ	.	16cc\JJ	.	16ccc\JJ	.	16eee\JJ	.
=62	=62	=62	=62	=62	=62	=62	=62
16AA/LL	.	16f\LL	.	16ff\LL	.	4fff'\	.
16BB-/	.	16g\	.	16ee\	.	.	.
16C/	.	16a\	.	16dd\	.	.	.
16D/JJ	.	16b-\JJ	.	16cc\JJ	.	.	.
16E\LL	.	16cc\LL	.	16b-/LL	.	4r	.
16F\	.	16dd\	.	16a/	.	.	.
16G\	.	16ee\	.	16g/	.	.	.
16A\JJ	.	16ff\JJ	.	16f/JJ	.	.	.
[2d\	ff	[2f\	ff	[2bn\	ff	16gg\LL	ff
.	.	.	.	.	.	16aa\	.
.	.	.	.	.	.	16bbn\	.
.	.	.	.	.	.	16ccc\JJ	.
.	.	.	.	.	.	16ddd\LL	.
.	.	.	.	.	.	16eee\	.
.	.	.	.	.	.	16fff\	.
.	.	.	.	.	.	16ggg\JJ	.
=63	=63	=63	=63	=63	=63	=63	=63
4d\]	p	4f\]	p	4bn\]	p	(16ggg\LL	p
.	.	.	.	.	.	16fff\	.
.	.	.	.	.	.	16eee\	.
.	.	.	.	.	.	16fff\JJ	.
(4d\	.	(4f\	.	(4b\	.	16eee\LL	.
.	.	.	.	.	.	16fff\	.
.	.	.	.	.	.	16eee\	.
.	.	.	.	.	.	16ddd\JJ)	.
4e\	.	4g\	.	4cc\	.	(16ddd\LL	.
.	.	.	.	.	.	16ccc\	.
.	.	.	.	.	.	16bbn\	.
.	.	.	.	.	.	16ccc\JJ)	.
4g\	.	4b-\	.	4ee\	.	(16ccc\LL	.
.	.	.	.	.	.	16bb-\	.
.	.	.	.	.	.	16aa\	.
.	.	.	.	.	.	16gg\JJ)	.
=64	=64	=64	=64	=64	=64	=64	=64
4a\)	.	4cc\)	.	4ff\)	.	(16gg\LL	.
.	.	.	.	.	.	16ff\	.
.	.	.	.	.	.	16ee\	.
.	.	.	.	.	.	16ff\JJ	.
*	*	*	*	*^	*	*	*
(4BBn/	.	(4G/	.	2f/	4d\	.	16ee\LL	.
.	.	.	.	.	.	.	16ff\	.
.	.	.	.	.	.	.	16ee\	.
.	.	.	.	.	.	.	16dd\JJ)	.
4C/	.	4A/	.	.	4c\	.	(16dd\LL	.
.	.	.	.	.	.	.	16cc\	.
.	.	.	.	.	.	.	16bn\	.
.	.	.	.	.	.	.	16cc\JJ)	.
*	*	*	*	*v	*v	*	*	*
4E\)	.	4G/)	.	4g/	.	(16cc\LL	.
.	.	.	.	.	.	16b-\	.
.	.	.	.	.	.	16a\	.
.	.	.	.	.	.	16g\JJ)	.
=65	=65	=65	=65	=65	=65	=65	=65
(16G\LL	.	(4F/	.	(4c/	.	(4a/	.
16F\	.	.	.	.	.	.	.
16E\	.	.	.	.	.	.	.
16F\JJ	.	.	.	.	.	.	.
16E\LL	<	4d\	<	4g/	<	4bn\	<
16F\	.	.	.	.	.	.	.
16E\	.	.	.	.	.	.	.
16D\JJ)	.	.	.	.	.	.	.
(16D/LL	.	4e\	.	4G/	.	4cc\	.
16C/	.	.	.	.	.	.	.
16BBn/	.	.	.	.	.	.	.
16C/JJ)	.	.	.	.	.	.	.
(16C/LL	.	4g\)	.	4cc\)	.	4ee\)	.
16BB-/	.	.	.	.	.	.	.
16AA/	.	.	.	.	.	.	.
16GG/JJ)	.	.	.	.	.	.	.
=66	=66	=66	=66	=66	=66	=66	=66
(16BB-/LL	.	4f\	.	4cc\	.	(16gg\LL	.
16AA/	.	.	.	.	.	16ff\	.
16GG/	.	.	.	.	.	16ee\	.
16AA/JJ)	.	.	.	.	.	16ff\JJ	.
4D/	.	4F/	.	4Bn/	.	16ee\LL	.
.	.	.	.	.	.	16ff\	.
.	.	.	.	.	.	16gg\	.
.	.	.	.	.	.	16aa\JJ)	.
(16C/LL	.	(16F/LL	.	(16c/LL	.	(16aa\LL	.
16BB-/	.	16G/	.	16g/	.	16bb-\	.
16AA/	.	16A/	.	16f/	.	16ccc\	.
16GG/JJ	.	16B-/JJ	.	16e/JJ	.	16ccc#\JJ	.
16FF/LL	.	16A/LL	.	16f/LL	.	16ddd\LL	.
16EE/	.	16G/	.	16g/	.	16ccc#\	.
16DD/)	.	16F/	.	16a/	.	16ddd\	.
16CC/JJ	.	16G/JJ)	.	16b-/JJ)	.	16ee\JJ)	.
=67	=67	=67	=67	=67	=67	=67	=67
(8.FF/L	ff	(8.A/L	ff	(8.a/L	ff	(8.ff\L	ff
16GG/Jk)	.	16B-/Jk)	.	16g/Jk)	.	16ee\Jk)	.
(8.BB-/L	.	(8.E/L	.	(8.G/L	.	(8.dd-\L	.
16D/Jk)	.	16G/Jk)	.	16e/Jk)	.	16b-\Jk)	.
(8.E\L	.	8.d-/L	.	(8.B-/L	.	(8.g/L	.
16G\Jk)	.	16B-/Jk	.	16d-/Jk)	.	16e/Jk)	.
(8.G\L	.	(8.B-/L	.	(8.e/L	.	(8.dd-\L	.
16A\Jk)	.	16c/Jk)	.	16f/Jk)	.	16cc\Jk)	.
=68	=68	=68	=68	=68	=68	=68	=68
(2BBn/	p	(2A-/	p	(2f/	p	(2ddn\	p
2C/)	.	2G/)	.	2e/)	.	2cc\)	.
=69	=69	=69	=69	=69	=69	=69	=69
(8.F\L	.	(8.a\L	.	(8.c/L	.	(8.cc\L	.
16E\Jk)	.	16g\Jk	.	16d-/Jk)	.	16dd-\Jk)	.
(8.D-/L	.	(8.b-\L)	.	(8.e/L	.	(8.ee\L	.
16BB-/Jk)	.	16g\Jk)	.	16dd-/Jk)	.	16gg\Jk)	.
(8.GG/L	.	(8.B-/L	.	(8.dd-\L	.	(8.bb-\L	.
16EE/Jk)	.	16G/Jk)	.	(16bb-\Jk)	.	16ddd-\Jk)	.
(8.D-/L	.	(8.B-/L	.	8.gg\L	.	(8.eee\L	.
16C/Jk)	.	16A/Jk)	.	16aa\Jk)	.	16fff\Jk)	.
=70	=70	=70	=70	=70	=70	=70	=70
(2Dn/	p	(2A-/	p	(2f/	p	(2bn\	p
2C/)	.	2f\)	.	2A/)	.	2cc\)	.
=71	=71	=71	=71	=71	=71	=71	=71
(2BBn/	.	(2A/	.	(2f/	.	[2ddn\	.
2C/)	.	2G/)	.	2e/)	.	(8dd/L]	.
.	.	.	.	.	.	8e/	.
.	.	.	.	.	.	8dd/	.
.	.	.	.	.	.	8cc/J)	.
=72	=72	=72	=72	=72	=72	=72	=72
(2BBn/	.	(2A/	.	(2f/	.	[2dd\	.
2CC/) 2C/	<	2C/) 2G/	<	2G/) 2e/	<	(8dd/L]	<
.	.	.	.	.	.	8c/	.
.	.	.	.	.	.	8b-/	.
.	.	.	.	.	.	8g/J)	.
=73	=73	=73	=73	=73	=73	=73	=73
8F\	p	8F/	p	8f/	p	8a/	p
8r	.	8r	.	8r	.	8r	.
8D\	.	8F/	.	8f/	.	8b-\	.
8r	.	8r	.	8r	.	8r	.
8C/	.	8f\	.	8a/	.	8cc\	.
8r	.	8r	.	8r	.	8r	.
8C/	f	8e\	f	8g/	f	8gg\	f
8r	.	8r	.	8r	.	8r	.
=74	=74	=74	=74	=74	=74	=74	=74
4r	.	4r	.	4r	.	4r	.
2.FF/	p	4c\	p	4e-/	p	4aa\	p
.	.	2r	.	2r	.	2r	.
=75	=75	=75	=75	=75	=75	=75	=75
(1FF	pp	1r	.	1r	.	1r	.
=76	=76	=76	=76	=76	=76	=76	=76
1FF#	.	1r	.	1r	.	[1A	.
=77	=77	=77	=77	=77	=77	=77	=77
1E-	.	(1F	pp	1r	.	1A_	.
=78	=78	=78	=78	=78	=78	=78	=78
[1D)	.	1F#)	.	(1a	pp	1A_	.
=79	=79	=79	=79	=79	=79	=79	=79
1D]	.	(1e-	.	1cc)	.	(4A/]	.
.	.	.	.	.	.	8.f#/L	.
.	.	.	.	.	.	16g/Jk	.
.	.	.	.	.	.	4a/	.
.	.	.	.	.	.	8.g/L	.
.	.	.	.	.	.	16f#/Jk)	.
=80	=80	=80	=80	=80	=80	=80	=80
1D	.	1d)	.	(2b-/	.	(4a/	.
.	.	.	.	.	.	[4g/)	.
.	.	.	.	2B-/)	.	8g/L]	.
.	.	.	.	.	.	(8g/	.
.	.	.	.	.	.	8f#/	.
.	.	.	.	.	.	8g/J	.
=81	=81	=81	=81	=81	=81	=81	=81
[1D	.	(1F#	.	(1c 1e-	.	4b-/	.
.	.	.	.	.	.	8.a/L	.
.	.	.	.	.	.	16b-/Jk	.
.	.	.	.	.	.	4cc/	.
.	.	.	.	.	.	8.b-/L	.
.	.	.	.	.	.	16a/Jk)	.
=82	=82	=82	=82	=82	=82	=82	=82
1D]	.	1G)	.	1B-) 1d	.	(4cc\	.
.	.	.	.	.	.	2b-\)	.
.	.	.	.	.	.	(8.ee-\L	.
.	.	.	.	.	.	16dd\Jk)	.
=83	=83	=83	=83	=83	=83	=83	=83
(4D\	.	(4F#/	.	1c 1d	.	(4dd\	.
8.F#\L	.	8.A/L	.	.	.	8.ee-\L	.
16G\Jk	.	16B-/Jk	.	.	.	16dd\Jk)	.
4A\	.	4c/	.	.	.	(4dd\	.
4F#\)	.	4A/)	.	.	.	8.ccc\L	.
.	.	.	.	.	.	16aa\Jk)	.
=84	=84	=84	=84	=84	=84	=84	=84
(4Fn\	<	(4A-/	.	4d/	<	(4ccc\	<
8.D\L	.	8.Fn/L	<	(2G/ 2g/	.	2bbn\	.
16E-\Jk	.	16G/Jk	.	.	.	.	.
4F\	>	4A-/	.	.	.	.	.
8E-\L	.	8G/L	>	8.a-/L	>	4ccc\)	>
8C\J)	.	8E-/J)	.	.	.	.	.
.	.	.	.	16g/Jk)	.	.	.
=85	=85	=85	=85	=85	=85	=85	=85
1BBn	.	1D 1G	.	(4dd\	.	4ddd\	.
.	.	.	.	4g/	.	(8.dd\L	.
.	.	.	.	.	.	16ee-\Jk	.
.	.	.	.	4d/	.	4ffn\	.
.	.	.	.	4g/)	.	8.ee-\L	.
.	.	.	.	.	.	16dd\Jk)	.
=86	=86	=86	=86	=86	=86	=86	=86
(2.C/	<	2.E-/ 2.G/	<	(4c/	.	(4ff\	<
.	.	.	.	8.A-/L	<	2ee-\	.
.	.	.	.	16G/Jk)	.	.	.
.	.	.	.	(4G/	.	.	.
4BB-/)	.	[4g\	.	8.e-/L	.	4dd\)	.
.	.	.	.	16d/Jk)	.	.	.
=87	=87	=87	=87	=87	=87	=87	=87
2AA-/	>	(4g\]	>	(4d/	>	(2cc\	>
.	.	8.e-\L	.	8.c/L	.	.	.
.	.	16d\Jk	.	16d/Jk	.	.	.
2A-\	.	4c\	.	4e-/	.	2f#/)	.
.	.	8.d\L	.	8.d/L	.	.	.
.	.	16e-\Jk)	.	16c/Jk)	.	.	.
=88	=88	=88	=88	=88	=88	=88	=88
[1G	.	(4e-\	.	(4c/	.	1g	.
.	.	8.d\L	<	2.Bn/)	<	.	.
.	.	16e-\Jk	.	.	.	.	.
.	.	4f\	.	.	.	.	.
.	.	8.e-\L	.	.	.	.	.
.	.	16d\Jk)	.	.	.	.	.
=89	=89	=89	=89	=89	=89	=89	=89
4G\]	<	(4f\	.	2c/	.	1ee-	<
(8.C/L	.	8.e-\L	.	.	.	.	.
16D/Jk	.	16f\Jk	.	.	.	.	.
4E-/	.	4g\	.	2cc\	.	.	.
8.D/L	.	8.f\L	.	.	.	.	.
16C/Jk)	.	16e-\Jk)	.	.	.	.	.
=90	=90	=90	=90	=90	=90	=90	=90
(4BB-/	.	(8d\L	.	1ccc	.	1eee-	.
.	.	8c\J)	.	.	.	.	.
8.AA-/L	.	(8.C/L	.	.	.	.	.
16BB-/Jk	.	16D/Jk	.	.	.	.	.
4C/	.	4E-/	.	.	.	.	.
8.BB-/L	.	8.D/L	.	.	.	.	.
16AA-/Jk)	.	16C/Jk)	.	.	.	.	.
=91	=91	=91	=91	=91	=91	=91	=91
4AA-'/	f	4F'/	f	4ccc'\	f	4eee-'\	f
4AAn'/	.	4F#'/	.	4ccc'\	.	4ddd'\	.
4GG'/	.	4G'/	.	4dd'\ 4ccc'\	.	4ddd'\	.
4GG'/	.	4G'/ 4g'/	.	4dd'\ 4bbn'\	.	4ddd'\	.
=92	=92	=92	=92	=92	=92	=92	=92
*k[]	*k[]	*k[]	*k[]	*k[]	*k[]	*k[]	*k[]
2r	.	2r	.	1r	.	1r	.
8.r	.	8.r	.	.	.	.	.
(16DD/LK	p	(16D/LK	p	.	.	.	.
8.CC/	.	8.C/	.	.	.	.	.
16DD/Jk)	.	16D/Jk)	.	.	.	.	.
=93	=93	=93	=93	=93	=93	=93	=93
(8FF/	.	(8F/	.	1r	.	1r	.
[4.EEn/)	.	[4.En/)	.	.	.	.	.
8EE/L]	.	8E/L]	.	.	.	.	.
(8FF/	.	(8F/	.	.	.	.	.
8.EE/	.	8.E/	.	.	.	.	.
16FF/Jk)	.	16F/Jk)	.	.	.	.	.
=94	=94	=94	=94	=94	=94	=94	=94
(8AA/	.	(8A/	.	2r	.	2r	.
4.GG/)	.	4.G/)	.	.	.	.	.
2r	.	2r	.	8.r	.	8.r	.
.	.	.	.	(16d/LK	p	(16dd\LK	p
.	.	.	.	8.c/	.	8.cc\	.
.	.	.	.	16d/Jk)	.	16dd\Jk)	.
=95	=95	=95	=95	=95	=95	=95	=95
8.r	.	8.r	.	(8f/	.	(8ff\	.
.	.	.	.	[4.e/)	.	[4.een\)	.
(16C/LK	.	(16c/LK	.	.	.	.	.
8.BB/	.	8.B/	.	.	.	.	.
16C/Jk)	.	16c/Jk)	.	.	.	.	.
(8EE/	.	(8E/	.	8e/L]	.	8ee\L]	.
4.DD/)	.	4.D/)	.	(8f/	.	(8ff\	.
.	.	.	.	8e/	.	8ee\	.
.	.	.	.	8f/J)	.	8ff\J)	.
=96	=96	=96	=96	=96	=96	=96	=96
8.r	.	8.r	.	(8a/	.	(8aa\	.
.	.	.	.	[4.g/)	.	[4.gg\)	.
(16E\LK	.	(16e\LK	.	.	.	.	.
8.D\	.	8.d\	.	.	.	.	.
16E\Jk)	.	16e\Jk)	.	.	.	.	.
(8GG/	.	(8G/	.	8g/L]	.	8gg\L]	.
4.FF/)	.	4.F/)	.	(8a/	.	(8aa\	.
.	.	.	.	8.g/	.	8.gg\	.
.	.	.	.	16a/Jk)	.	16aa\Jk)	.
=97	=97	=97	=97	=97	=97	=97	=97
(8.FF/L	>	(8.F/L	.	(8.a\L	>	(8.aa\L	.
16G\Jk)	.	16B-/Jk)	>	16cc\Jk)	.	16ee\Jk)	>
8G'\L	p	8B-'/L	.	8cc'\L	p	8ee'\L	p
8F'\J	.	8A'/J	p	8dd'\J	.	8ff'\J	.
(8.E\L	.	(8.G/L	>	(8.ee\L	>	(8.gg\L	.
16F\Jk)	>	&(16A-/Jk&))	.	&(16b\Jk&))	.	16dd\Jk)	>
8F'\L	p	8A-'/L	p	8b'\L	p	8dd'\L	p
8E'\J	.	8G'/J	.	8ccn'\J	.	8ee'\J	.
=98	=98	=98	=98	=98	=98	=98	=98
(8.D\L	>	(8.F/L	.	(8.f/L	.	(8.ff\L	.
16e\Jk)	.	16g\Jk)	>	16c/Jk)	>	16a\Jk)	>
8e'\L	p	8g'\L	p	8c'/L	.	8a'\L	p
8d'\J	.	8f'\J	.	8g'/J	p	8b'\J	.
8c'\L	pp	8e'\L	pp	8a'\L	.	8cc'\L	pp
8B'\	.	8d'\	.	8b'\	pp	8dd'\	.
8A'\	.	8c'\	.	8cc'\	.	8ee'\	.
8G'\J	.	8B'\J	.	8dd'\J	.	8ff'\J	.
=99	=99	=99	=99	=99	=99	=99	=99
(8.G/L	.	1G	.	1c	.	1ee	.
16BB/Jk	<	.	.	.	.	.	.
8.C/L	.	.	.	.	.	.	.
16D/Jk	.	.	.	.	.	.	.
4E/	.	.	.	.	.	.	.
8.D/L	.	.	.	.	.	.	.
16C/Jk)	.	.	.	.	.	.	.
=100	=100	=100	=100	=100	=100	=100	=100
(4BB/	.	1c	<	1cc	<	1eee	<
8.AA/L	.	.	.	.	.	.	.
16BB/Jk	.	.	.	.	.	.	.
4C/	.	.	.	.	.	.	.
8.BB/L	.	.	.	.	.	.	.
16AA/Jk)	.	.	.	.	.	.	.
=101	=101	=101	=101	=101	=101	=101	=101
(8AA/L	.	(8B/L	.	1b 1ee	.	1ggg	.
8GG/J)	.	8E/J)	.	.	.	.	.
(8.GG/L	.	(8.E/L	.	.	.	.	.
16AA/Jk	.	16F#/Jk	.	.	.	.	.
4BB/	.	4G/	.	.	.	.	.
8.AA/L	.	8.F#/L	.	.	.	.	.
16GG/Jk)	.	16E/Jk)	.	.	.	.	.
=102	=102	=102	=102	=102	=102	=102	=102
4AA'/	f	4E'/	f	4cc'\ 4ee'\	f	4ggg'\	f
4AA#'/	.	4E'/	.	4cc#'\ 4ee'\	.	4fff#'\	.
4BB'/	.	4B'/	.	4f#'\ 4ee'\	.	4fff#'\	.
4BB'/	.	4B'/	.	4f#'\ 4dd#'\	.	4fff#'\	.
=103	=103	=103	=103	=103	=103	=103	=103
1DD#	ff	1D#	ff	1d#	ff	1d#	.
=104	=104	=104	=104	=104	=104	=104	=104
1EE	f	1E	.	1e	f	1e	ff
=105	=105	=105	=105	=105	=105	=105	=105
1C	f	1e	f	1ee	f	1aa#	f
=106	=106	=106	=106	=106	=106	=106	=106
1BB	f	1B 1f#	f	1f# 1dd#	f	[1bb	f
=107	=107	=107	=107	=107	=107	=107	=107
*clefC4	*clefC4	*	*	*	*	*	*
(1d#	>	[1f#	>	1B	>	8bb\L]	>
.	.	.	.	.	.	(8gg#\	.
.	.	.	.	.	.	8aan\	.
.	.	.	.	.	.	8bb\J	.
.	.	.	.	.	.	4ccc\	.
.	.	.	.	.	.	8.bb\L	.
.	.	.	.	.	.	16aa\Jk)	.
=108	=108	=108	=108	=108	=108	=108	=108
1e	.	(4f#\]	.	[1B	.	(4aa\	.
.	.	8.g\L	.	.	.	2ggn\	.
.	.	16a\Jk	.	.	.	.	.
.	.	4b\	.	.	.	.	.
.	.	8.a\L	.	.	.	8.ff#\L	.
.	.	16g\Jk)	.	.	.	16ee\Jk)	.
=109	=109	=109	=109	=109	=109	=109	=109
1cc	.	(4.g\	.	1B]	.	(8ee\L	.
.	.	.	.	.	.	8dd#\	.
.	.	.	.	.	.	8.ee\	.
.	.	8f#\	.	.	.	.	.
.	.	.	.	.	.	16ff#\Jk	.
.	.	8e\L	.	.	.	4gg\	.
.	.	8b\	.	.	.	.	.
.	.	8a\	.	.	.	8.ff#\L	.
.	.	8g\J)	.	.	.	.	.
.	.	.	.	.	.	16ee\Jk)	.
=110	=110	=110	=110	=110	=110	=110	=110
2.b\)	.	(4g\	.	1B	.	(4ee\	.
.	.	2f#\	<	.	.	2.dd#\)	<
(8.f#\L	<	8.a\L	.	.	.	.	.
16g\Jk)	.	16b\Jk)	.	.	.	.	.
=111	=111	=111	=111	=111	=111	=111	=111
*k[f#]	*k[f#]	*k[f#]	*k[f#]	*k[f#]	*k[f#]	*k[f#]	*k[f#]
4a\	f	4cc\	f	4A/ 4f#/	<	1dd#	f
*clefF4	*clefF4	*	*	*	*	*	*
(8.A\L	.	(8.c/L	.	(8.f#/L	.	.	.
16G\Jk	.	16B/Jk	.	16g/Jk	.	.	.
4F#\	.	4A/	.	4cc/	.	.	.
8.G\L	.	8.B/L	.	8.b/L	.	.	.
16A\Jk)	.	16c/Jk)	.	16a/Jk)	.	.	.
=112	=112	=112	=112	=112	=112	=112	=112
(4A\	.	(4c/	.	4g/	.	1ee	.
2G\	.	2B/	.	(8.g/L	.	.	.
.	.	.	.	16a/Jk)	.	.	.
.	.	.	.	[2b/	.	.	.
4F#\)	.	4A/)	.	.	.	.	.
=113	=113	=113	=113	=113	=113	=113	=113
4E\	.	4G/	.	4b/]	.	1ccc	.
(8.EE/L	.	(8.G/L	.	(8.g/L	.	.	.
16FF#/Jk	.	16A/Jk	.	16a/Jk	.	.	.
4GG/	.	4B/	.	4b/	.	.	.
8.FF#/L	.	8.A/L	.	8.a/L	.	.	.
16EE/Jk)	.	16G/Jk)	.	16g/Jk)	.	.	.
=114	=114	=114	=114	=114	=114	=114	=114
(4EE/	.	(4G/	.	(4g/	.	[2bb\	.
2DD#/)	>	2F#/	.	2f#/	.	.	.
.	.	.	.	.	.	2bb\_	.
4r	>	4c/)	>	4e/)	>	.	.
=115	=115	=115	=115	=115	=115	=115	=115
2r	.	4c/	.	(4e/	.	1bb_	>
.	.	2B/	.	2d#/)	.	.	.
4r	.	.	.	.	.	.	.
4E\	p	4G/	p	4r	.	.	.
=116	=116	=116	=116	=116	=116	=116	=116
(4E\	.	(4G/	.	2r	.	2bb\_	.
2D#\	.	2F#/	.	.	.	.	.
.	.	.	.	(4f#/	pp	2bb\_	pp
4Dn\)	pp	4Fn/)	pp	4fn/	.	.	.
=117	=117	=117	=117	=117	=117	=117	=117
(4C/	.	(4E/	.	4e/	.	(2.bb\]	.
2BB/	.	2D#/	.	4d#/	.	.	.
.	.	.	.	4b\	.	.	.
4AA/)	.	4C/)	.	4cc\)	.	4ccc\)	.
=118	=118	=118	=118	=118	=118	=118	=118
4GG'/	<	4B'/	.	4cc'\	.	4ccc'\	.
4FF#'/	.	4A'/	<	4d#'/ 4cc'/	<	4ccc'\	<
4EE'/	.	4G'/	.	4e'/ 4cc'/	.	4ccc'\	.
4DD#'/	.	4F#'/	.	4f#/ 4cc/	.	4ccc'\	.
=119	=119	=119	=119	=119	=119	=119	=119
4F#'\	f	4d#\	f	4a'/ 4cc'/	f	16ccc\LL	f
.	.	.	.	.	.	(16bb\	.
.	.	.	.	.	.	16aa\	.
.	.	.	.	.	.	16ccc\JJ	.
4r	.	4r	.	4r	.	16aa\LL	.
.	.	.	.	.	.	16gg\	.
.	.	.	.	.	.	16ff#\	.
.	.	.	.	.	.	16aa\JJ	.
2r	.	2r	.	2r	.	16ff#\LL	.
.	.	.	.	.	.	16ee\	.
.	.	.	.	.	.	16dd#\	.
.	.	.	.	.	.	16ff#\JJ	.
.	.	.	.	.	.	16cc\LL	.
.	.	.	.	.	.	16b\	.
.	.	.	.	.	.	16a\	.
.	.	.	.	.	.	16cc\JJ	.
=120	=120	=120	=120	=120	=120	=120	=120
2r	.	2r	.	2r	.	16a/LL	.
.	.	.	.	.	.	16g/	>
.	.	.	.	.	.	16f#/	.
.	.	.	.	.	.	16a/JJ	.
.	.	.	.	.	.	16d#/LL	.
.	.	.	.	.	.	16f#/	.
.	.	.	.	.	.	16a/	.
.	.	.	.	.	.	16cc/JJ	.
4r	.	4r	.	4r	.	12dd#\L	.
.	.	.	.	.	.	12ff#\	.
.	.	.	.	.	.	12aa\J	.
*clefC4	*clefC4	*	*	*	*	*	*
4f#'\	p	4B'\ 4a'\	p	4dd#'\	p	8ccc\L	p
.	.	.	.	.	.	8bb\J)	.
=121	=121	=121	=121	=121	=121	=121	=121
4r	.	1r	.	1r	.	[1bb	.
(8.e\L	.	.	.	.	.	.	.
16f#\Jk	.	.	.	.	.	.	.
4g\	.	.	.	.	.	.	.
8.f#\L	.	.	.	.	.	.	.
16e\Jk)	.	.	.	.	.	.	.
=122	=122	=122	=122	=122	=122	=122	=122
(4e\	.	1r	.	1r	.	2bb\_	.
2.d#\)	.	.	.	.	.	.	.
.	.	.	.	.	.	(8bb\L]	.
.	.	.	.	.	.	8aa#\J	.
.	.	.	.	.	.	12aan\L)	.
.	.	.	.	.	.	12gg\	.
.	.	.	.	.	.	12ff#\J	.
=123	=123	=123	=123	=123	=123	=123	=123
1r	.	1r	.	(1cc	p	(8ff#\L	.
.	.	.	.	.	.	8dd#\	.
.	.	.	.	.	.	8.ee\	.
.	.	.	.	.	.	16ff#\Jk	.
.	.	.	.	.	.	4gg\	.
.	.	.	.	.	.	8.ff#\L	.
.	.	.	.	.	.	16ee\Jk)	.
=124	=124	=124	=124	=124	=124	=124	=124
1r	.	1r	.	1b)	.	(4ee\	.
.	.	.	.	.	.	2dd#\)	.
.	.	.	.	.	.	(16ddn\LL	.
.	.	.	.	.	.	16cc\J	.
.	.	.	.	.	.	8b\J)	.
=125	=125	=125	=125	=125	=125	=125	=125
1r	.	1d#	p	1f#	.	(4b\	.
.	.	.	.	.	.	8dd\L	.
.	.	.	.	.	.	16cc\L	.
.	.	.	.	.	.	(16b\JJ)	.
.	.	.	.	.	.	8b\L	.
.	.	.	.	.	.	8aa#\J	.
.	.	.	.	.	.	16bb\LL	.
.	.	.	.	.	.	16aan\J	.
.	.	.	.	.	.	8ff#\J)	.
=126	=126	=126	=126	=126	=126	=126	=126
4r	.	(2.e\	.	(2.g/	.	(4aa\	.
(8g\L	.	.	.	.	.	2gg\)	.
16f#\L	.	.	.	.	.	.	.
16d#\JJ	.	.	.	.	.	.	.
4f#\	.	.	.	.	.	.	.
4e\)	.	4f#\	.	8a/L	.	(8ddd\L	.
.	.	.	.	8a#/J)	.	16cccn\L	.
.	.	.	.	.	.	16aa#\JJ	.
=127	=127	=127	=127	=127	=127	=127	=127
4r	.	[2.g\)	.	2.b\	.	4ccc\	.
*clefC4	*clefG2	*	*	*	*	*	*
(8b\L	.	.	.	.	.	[4bb\)	.
16a\L	.	.	.	.	.	.	.
16f#\JJ)	.	.	.	.	.	.	.
(8a\	.	.	.	.	.	8bb\L]	.
4g\	.	.	.	.	.	(8ddd#\J	.
.	.	(8g\L]	.	4b\	.	8fffn\L	.
8g#\)	.	8g#\J)	.	.	.	16eee\L	.
.	.	.	.	.	.	16bb\JJ)	.
=128	=128	=128	=128	=128	=128	=128	=128
4r	.	[2a\	.	[2cc\	.	(4dddn\	.
(8a\L	.	.	.	.	.	[4ccc\)	.
8e\J	.	.	.	.	.	.	.
2fn\)	<	2a\]	<	2cc\]	<	(8.ccc\L]	.
.	.	.	.	.	.	16aa\Jk)	<
.	.	.	.	.	.	(8.aa\L	.
.	.	.	.	.	.	16ffn\Jk)	.
=129	=129	=129	=129	=129	=129	=129	=129
*clefF4	*clefF4	*	*	*	*	*	*
(8.Fn\L	f	(8.fn\L	f	(8.fn/L	f	(8.ffn\L	f
16C\Jk)	.	16c\Jk)	.	16c/Jk)	.	16cc\Jk)	.
(8.C/L	.	(8.c/L	.	(8.c/L	.	(8.cc/L	.
16AA/Jk)	.	16A/Jk)	.	16A/Jk)	.	16a/Jk)	.
(8.AA/L	.	(8.A/L	.	(8.a/L	.	(8.a/L	.
16FFn/Jk)	.	16Fn/Jk)	.	16f/Jk)	.	16fn/Jk)	.
(8.FF/L	.	(8.F/L	.	(8.f/L	.	(8.f/L	.
16EE/Jk)	.	16E/Jk)	.	16e/Jk)	.	16e/Jk)	.
=130	=130	=130	=130	=130	=130	=130	=130
4DD#'/	.	4D#'/	.	4d#'/	.	4d#'/	.
4C'/	.	4c'/	.	4a'/	.	4dd#\	.
4BB'/	.	4B'/	.	4g'/	.	4ee'\	.
4AA#'/	.	4A#'/	.	4f#/ 4ee/	.	(8eee\L	.
.	.	.	.	.	.	8fff#\J)	.
=131	=131	=131	=131	=131	=131	=131	=131
*MM40	*MM40	*MM40	*MM40	*MM40	*MM40	*MM40	*MM40
1BB	p	1B	p	2e/ 2ee/	p	(8ggg\L	p
.	.	.	.	.	.	8bb\	.
.	.	.	.	.	.	8eee\	.
.	.	.	.	.	.	8ggg\J	.
.	.	.	.	2g\ 2ee\	.	4.bbb\)	.
.	.	.	.	.	.	8gg\	.
=132	=132	=132	=132	=132	=132	=132	=132
*MM120	*MM120	*MM120	*MM120	*MM120	*MM120	*MM120	*MM120
(2.BB/	.	(2.B/	.	1dd#	.	4ff#\	.
.	.	.	.	.	.	4r	.
.	.	.	.	.	.	2r	.
4FF#/)	<	4F#/)	<	.	.	.	.
=133	=133	=133	=133	=133	=133	=133	=133
4EE/	.	4E/	.	(2.ddn\	.	(2.dddn\	.
4r	.	4r	.	.	.	.	.
2r	.	2r	.	.	.	.	.
.	.	.	.	4g#/)	<	4gg#\)	<
=134	=134	=134	=134	=134	=134	=134	=134
(1BB-	p	[1E [1G	p	1gn	p	4ggn\	p
.	.	.	.	.	.	(8.c#/L	.
.	.	.	.	.	.	16d/Jk	.
.	.	.	.	.	.	4e/	.
.	.	.	.	.	.	8.d/L	.
.	.	.	.	.	.	16c#/Jk)	.
=135	=135	=135	=135	=135	=135	=135	=135
1AA)	.	(4E/] 4G/]	.	4r	.	(4c#/	.
.	.	&(2.Fn/&))	.	(8.dd\L	.	2.d/)	.
.	.	.	.	16ee\Jk	.	.	.
.	.	.	.	4ffn\	.	.	.
.	.	.	.	8.ee\L	.	.	.
.	.	.	.	16dd\Jk)	.	.	.
=136	=136	=136	=136	=136	=136	=136	=136
[1AA	.	1B-	.	(4dd\	.	(4g/	.
.	.	.	.	8.cc#\L	.	8.e/L	.
.	.	.	.	16dd\Jk	.	16fn/Jk	.
.	.	.	.	4ee\	.	4g/	.
.	.	.	.	8.dd\L	.	8.f/L	.
.	.	.	.	16cc#\Jk)	.	16e/Jk)	.
=137	=137	=137	=137	=137	=137	=137	=137
4AA/]	.	2.A/	.	(4ee\	.	(8.g/L	.
.	.	.	.	.	.	16fn/Jk	.
(8.D\L	.	.	.	2dd\)	.	4e/	.
16E\Jk	.	.	.	.	.	.	.
4Fn\)	.	.	.	.	.	4d/)	.
(8.BB-/L	.	(8.Fn/L	.	(8.d/L	.	[4dd\	.
16AA/Jk)	.	16G/Jk)	.	16e/Jk)	.	.	.
=138	=138	=138	=138	=138	=138	=138	=138
*k[]	*k[]	*k[]	*k[]	*k[]	*k[]	*k[]	*k[]
(4AA/	.	(4G/	.	(4e/	.	(8dd\L]	.
.	.	.	.	.	.	8cc#\J	.
8.BB-/L	.	8.F/L	.	8.d/L	.	[4dd\)	.
16AA/Jk)	.	16G/Jk)	.	16e/Jk)	.	.	.
(4AA/	.	(4G/	.	4e/	.	(8dd\L]	.
.	.	.	.	.	.	8ee\J)	.
8.G\L	.	4c#\)	.	(8.e/L	.	(8.b-\L	.
16E\Jk)	.	.	.	16g/Jk)	.	16a\Jk)	.
=139	=139	=139	=139	=139	=139	=139	=139
(4G\	.	(4c#\	.	(4e/	.	(4a/	.
2F\)	.	8.e\L	.	8.cc#\L	.	8.b-/L	.
.	.	16f\Jk)	.	16dd\Jk	.	16a/Jk)	.
.	.	4f\	.	4dd\)	.	(4a/	.
(8.E\L	.	4r	.	(8.B-/L	.	8.gg\L	.
16C#\Jk)	.	.	.	16A/Jk)	.	16ee\Jk)	.
=140	=140	=140	=140	=140	=140	=140	=140
(4E\	.	4r	.	(4A/	.	(4gg\	.
2D\)	.	(8.c#\L	.	8.B-/L	.	2ff\)	.
.	.	16d\Jk)	.	16A/Jk)	.	.	.
.	.	4d\	.	4A/	.	.	.
(8.AA/L	.	(8.A/L	.	4d/ 4f/	.	4ff\	.
16AA-/Jk)	.	16A-/Jk)	.	.	.	.	.
=141	=141	=141	=141	=141	=141	=141	=141
1AA-	f	1A- 1f	f	1d 1dd	f	(4ff\	f
.	.	.	.	.	.	8.dd\L	.
.	.	.	.	.	.	16ee-\Jk	.
.	.	.	.	.	.	4ff\	.
.	.	.	.	.	.	8.dd\L	.
.	.	.	.	.	.	16cc\Jk)	.
=142	=142	=142	=142	=142	=142	=142	=142
1GG	>	1G 1f	>	4d/ 4dd/	.	(4cc\	.
.	.	.	.	(8.d/L	>	2bn\)	>
.	.	.	.	16e-/Jk	.	.	.
.	.	.	.	4f/	.	.	.
.	.	.	.	8.d/L	.	(8.een\L	.
.	.	.	.	16c/Jk)	.	16ff\Jk)	.
=143	=143	=143	=143	=143	=143	=143	=143
1AA-	f	1A- 1f	f	(4c/	f	(4ff\	f
.	.	.	.	2Bn/)	.	8.dd\L	.
.	.	.	.	.	.	16ee-\Jk	.
.	.	.	.	.	.	4ff\	.
.	.	.	.	(8.B/L	.	8.dd\L	.
.	.	.	.	16c/Jk)	.	16cc\Jk)	.
=144	=144	=144	=144	=144	=144	=144	=144
1GG	.	1G 1f	.	4d/ 4dd/	.	(4cc\	.
.	.	.	.	(8.d/L	>	2b\	>
.	.	.	.	16e-/Jk	.	.	.
.	.	.	.	4f/	.	.	.
.	.	.	.	8.d/L	.	8.een\L	.
.	.	.	.	16c/Jk)	.	16ff\Jk)	.
=145	=145	=145	=145	=145	=145	=145	=145
4r	>	4r	>	(4c/	p	(8.ff\L	p
.	.	.	.	.	.	16dd\Jk	.
4G'\	p	4Bn'/ 4d'/	p	8.B/L	.	4ff'\)	.
.	.	.	.	16f#/Jk)	.	.	.
4r	.	4r	.	(4f#/	.	4r	.
4BBn/	.	4G'/ 4d'/	.	8.g/L	.	4dd'\	.
.	.	.	.	16fn/Jk)	.	.	.
=146	=146	=146	=146	=146	=146	=146	=146
4r	.	4r	.	(4f/	.	4r	.
4C/	.	4G/	.	4en/)	.	(8.ee\L	.
.	.	.	.	.	.	16eee\Jk)	.
4r	.	4r	.	4r	.	(4eee\	.
4E\	.	4G/	.	4g/	.	8.ddd\L	.
.	.	.	.	.	.	16ccc\Jk)	.
=147	=147	=147	=147	=147	=147	=147	=147
4r	.	4r	.	8r	.	(4ccc\	.
.	.	.	.	(16b\LL	.	.	.
.	.	.	.	16cc\JJ	.	.	.
4G\	.	4B\ 4d\	.	16dd\LL	.	4bb\)	.
.	.	.	.	16cc#\	.	.	.
.	.	.	.	16dd\	.	.	.
.	.	.	.	16f#\JJ	.	.	.
4r	.	4r	.	4g/)	.	8r	.
.	.	.	.	.	.	(16ff#\LL	.
.	.	.	.	.	.	16gg\JJ	.
4B\	.	4d\	.	4g/	.	16aa\LL	.
.	.	.	.	.	.	16gg#\	.
.	.	.	.	.	.	16aa\	.
.	.	.	.	.	.	16ffn\JJ)	.
=148	=148	=148	=148	=148	=148	=148	=148
4r	.	4r	.	4r	.	(16ff\LL	.
.	.	.	.	.	.	16dd#\	.
.	.	.	.	.	.	16ee\	.
.	.	.	.	.	.	16ff\JJ	.
4c\	.	4e\	.	4g/	.	16ff#\LL	.
.	.	.	.	.	.	16ggn\	.
.	.	.	.	.	.	16gg#\	.
.	.	.	.	.	.	16aa\JJ	.
4r	.	4r	.	4r	.	16bb-\LL	.
.	.	.	.	.	.	16bbn\	.
.	.	.	.	.	.	16ccc\	.
.	.	.	.	.	.	16ccc#\JJ	.
4E\	.	4c\	.	4g/ 4ccn/	.	16dddn\LL	.
.	.	.	.	.	.	16eee\	.
.	.	.	.	.	.	16ddd\	.
.	.	.	.	.	.	16cccn\JJ)	.
=149	=149	=149	=149	=149	=149	=149	=149
8F/L	<	(16cc\LL	<	(16a/LL	<	(16ccc\LL	<
.	.	16b\	.	16g#/	.	16bb\	.
8FF/	.	16cc\	.	16a/	.	16ccc\	.
.	.	16a\JJ)	.	16fn/JJ)	.	16a\JJ)	.
8F/	.	8a'\L	.	8f'/L	.	8aa'\L	.
8FF/J	.	8a'\J	.	8f'/J	.	8aa'\J	.
8F\L	.	8a\L	.	(16f/LL	.	(16aa\LL	.
.	.	.	.	16e/	.	16gg#\	.
8D\	.	8D/J	.	16f/	.	16aa\	.
.	.	.	.	16d/JJ)	.	16ffn\JJ)	.
8d\	.	8d\L	.	8f'/L	.	8ff'\L	.
8D\J	.	8D/J	.	8f'/J	.	8ff'\J	.
=150	=150	=150	=150	=150	=150	=150	=150
8d\L	.	(8d\L	.	(16f/LL	.	(16ff\LL	.
.	.	.	.	16e/	.	16ee\	.
8BB\	.	16dd\L	.	16f/	.	16ff\	.
.	.	16b\JJ)	.	16d/JJ)	.	16ddn\JJ)	.
8G\	.	8b'\L	.	8d'/L	.	8dd'\L	.
8GG\J	.	8b'\J	.	8d'/J	.	8dd'\J	.
8G\L	.	8b\L	.	(16d/LL	.	(16dd\LL	.
.	.	.	.	16c#/	.	16cc#\	.
8GG\	.	8B\J	.	16d/	.	16dd\	.
.	.	.	.	16B/JJ)	.	16b\JJ)	.
8G\	.	8dd'\L	.	8B'/L	.	8b'\L	.
8F\J	f	8dd'\J	f	8A'/J	.	8aa'\J	f
=151	=151	=151	=151	=151	=151	=151	=151
4F'\	.	4d'\	.	4a/	f	4aa'\	.
4E'\	.	[2E/	.	8g#'/	.	4bb'\	.
.	.	.	.	16r	.	.	.
.	.	.	.	16b\	p	.	.
2r	.	.	.	4ee'\	.	2r	.
.	.	8.E/]	.	4ee'\	.	.	.
.	.	16e\	.	.	.	.	.
=152	=152	=152	=152	=152	=152	=152	=152
1r	.	4a'\	.	(4.ee\	.	4r	.
.	.	4a'\	.	.	.	8.r	.
.	.	.	.	16dd\LL	.	.	.
.	.	.	.	16ccn\JJ)	.	16ccn\	p
.	.	8a'\L	.	8cc'\L	.	4ff'\	.
.	.	8a'\J	.	8cc'\J	.	.	.
.	.	(16a\LL	.	(16cc\LL	.	4ff'\	.
.	.	16b\J	.	16dd\J	.	.	.
.	.	8a\J)	.	8cc\J)	.	.	.
=153	=153	=153	=153	=153	=153	=153	=153
4r	.	(4a\	.	(4cc\	.	(4.ff\	.
8.r	.	4g#\)	.	8b\L)	.	.	.
.	.	.	.	8b'\J	.	16ee\LL	.
16BB/	pp	.	.	.	.	16dd\JJ)	.
4E'\	.	4r	.	8b'\L	.	8dd'\L	.
.	.	.	.	8b'\J	.	8dd'\J	.
4E'\	.	8.r	.	(16b\LL	.	(16dd\LL	.
.	.	.	.	16cc\J	.	16ee\J	.
.	.	.	.	8b\J)	.	8dd\J)	.
.	.	16e\	p	.	.	.	.
=154	=154	=154	=154	=154	=154	=154	=154
8E/L	.	4ee'\	.	8a'/L	.	8cc'\L	.
8C/	.	.	.	8gn'/J	.	8cc'\J	.
8C/	.	4ee'\	.	(16g/LL	.	(16cc\LL	.
.	.	.	.	16f/J	.	16b\J	.
8C/J	.	.	.	8e/J)	.	8cc\J)	.
8AA\L	.	(8ee\L	.	8g'/L 8cc'/	.	(8eee\L	.
8A\	.	16dd\L	.	8g/	.	16ddd\L	.
.	.	16cc\JJ)	.	.	.	16ccc\JJ)	.
8A\	.	(16cc\LL	.	8g/	.	(16ccc\LL	.
.	.	16dd\J	.	.	.	16ddd\J	.
8A\J	.	8cc\J)	.	8f#/J	.	8ccc\J)	.
=155	=155	=155	=155	=155	=155	=155	=155
(8.GG/L	<	(8.d/L	<	(8.g/L	<	(8.cc\L	<
16F/Jk)	.	16G/Jk)	.	16d/Jk)	.	16a#\Jk)	.
4r	.	(8.d/L	.	(8.fn/L	.	(8.b\L	.
.	.	16G/Jk)	.	16B/Jk)	.	16dd\Jk)	.
(8.GG/L	.	(8.G/L	.	(8.g/L	.	(8.b\L	.
16E/Jk)	.	16C/Jk)	.	16G/Jk)	.	16cc\Jk)	.
4r	.	(8.e/L	.	(8.g/L	.	(8.cc\L	.
.	.	16G/Jk)	.	16e/Jk)	.	16cc#\Jk)	.
=156	=156	=156	=156	=156	=156	=156	=156
(8.GG/L	.	(8.f/L	.	(8.g/L	.	(8.cc#\L	.
16BB/Jk)	.	16G/Jk)	.	16f/Jk)	.	16dd\Jk)	.
4r	.	(8.f/L	.	(8.g/L	.	(8.dd\L	.
.	.	16G/Jk)	.	16f/Jk)	.	16dd#\Jk)	.
(8.GG/L	.	(8.c/L	.	(8.g/L	.	(8.dd#\L	.
16C/Jk)	.	16G/Jk)	.	16cn/Jk)	.	16ee\Jk)	.
(8.B-\L	.	(8.g\L	.	(8.cc/L	.	(8.ee\L	.
16A\Jk)	.	16c\Jk)	.	16f/Jk)	.	16ff\Jk)	.
=157	=157	=157	=157	=157	=157	=157	=157
(8.A\L	.	(8.f\L	.	(8.cc/L	.	(8.ff\L	.
16A-\Jk)	.	16c\Jk)	.	16f#/Jk)	.	16ff#\Jk)	.
(8.A-\L	.	(8.c/L	.	(8.cc/L	.	(8.ff#\L	.
16G\Jk)	.	16E/Jk)	.	16e/Jk)	.	16gg\Jk)	.
(8.G\L	.	(8.E/L	.	(8.e/L	.	(8.gg\L	.
16E\Jk)	.	(16B-/Jk)	.	16b-/Jk)	.	16gg#\Jk)	.
(8.E\L	.	8.B-/L	.	(8.b-/L	.	(8.gg#\L	.
16F\Jk)	.	16A/Jk)	.	16a/Jk)	.	16aan\Jk)	.
=158	=158	=158	=158	=158	=158	=158	=158
(8.F\L	.	(8.A/L	.	(8.a/L	.	(8.aa\L	.
16FF/Jk)	.	16A-/Jk)	.	16d/Jk)	.	16bb\Jk)	.
(8.FF/L	.	(8.A-/L	.	(8.d/L	.	(8.bb\L	.
16FF#/Jk)	.	16An/Jk)	.	16e-/Jk)	.	16cccn\Jk)	.
(8.FF#/L	f	(8.A/L	f	(8.e-/L	f	(8.ccc\L	f
16GG/Jk)	.	16G/Jk)	>	16en/Jk)	>	16cc\Jk)	.
(8.GG\L	>	(8.G/L	.	(8.e/L	.	(8.ee\L	>
16G\Jk)	.	16B/Jk)	.	16f/Jk)	.	16dd\Jk)	.
=159	=159	=159	=159	=159	=159	=159	=159
2r	.	4C/	p	12r	.	1r	.
.	.	.	.	12a/L	p	.	.
.	.	.	.	12g/J	.	.	.
.	.	12r	.	4c/	.	.	.
.	.	12A/L	.	.	.	.	.
.	.	12G/J	.	.	.	.	.
*clefC4	*clefC4	*	*	*	*	*	*
8r	.	4C/	.	12r	.	.	.
.	.	.	.	12a/L	.	.	.
(8c\L	p	.	.	.	.	.	.
.	.	.	.	12g/J	.	.	.
8d\	.	12r	.	4c/	.	.	.
.	.	12a\L	.	.	.	.	.
8e\J)	.	.	.	.	.	.	.
.	.	12g\J	.	.	.	.	.
=160	=160	=160	=160	=160	=160	=160	=160
(4..f\	.	4G/ 4d/	.	12r	.	2r	.
.	.	.	.	12a/L	.	.	.
.	.	.	.	12g/J	.	.	.
.	.	12r	.	4B/	.	.	.
.	.	12c/L	.	.	.	.	.
.	.	12B/J	.	.	.	.	.
16e\)	.	.	.	.	.	.	.
(4d'\	.	4G/	.	12r	.	8r	.
.	.	.	.	12a/L	.	.	.
.	.	.	.	.	.	(8dd\L	p
.	.	.	.	12g/J	.	.	.
4d'\)	.	12r	.	4B/	.	8ee\	.
.	.	12c/L	.	.	.	.	.
.	.	.	.	.	.	8ff\J)	.
.	.	12B/J	.	.	.	.	.
=161	=161	=161	=161	=161	=161	=161	=161
(4f\	.	4G/	.	12r	.	(4ff\	.
.	.	.	.	12a/L	.	.	.
.	.	.	.	12g/J	.	.	.
8e\L	.	12r	.	4c/	.	8ee\L	.
.	.	12G/L	.	.	.	.	.
8d\J	.	.	.	.	.	8dd\J	.
.	.	12F/J	.	.	.	.	.
4c\	.	4E/	.	12r	.	4cc\	.
.	.	.	.	12a/L	.	.	.
.	.	.	.	12g/J	.	.	.
8d\L	.	12r	.	4c/	.	8dd\L	.
.	.	12D/L	.	.	.	.	.
8e\J)	.	.	.	.	.	8ee\J)	.
.	.	12C/J	.	.	.	.	.
=162	=162	=162	=162	=162	=162	=162	=162
(4.d\	.	4D/ 4B/	.	12r	.	(4.dd\	.
.	.	.	.	12a/L	.	.	.
.	.	.	.	12g/J	.	.	.
.	.	12r	.	4B/	.	.	.
.	.	12c/L	.	.	.	.	.
8g\)	.	.	.	.	.	8b\)	.
.	.	12B/J	.	.	.	.	.
(4.f#\	.	4D/ 4A/	.	12r	.	(4.cc\	.
.	.	.	.	12g/L	.	.	.
.	.	.	.	12f#/J	.	.	.
.	.	12r	.	4c/	.	.	.
.	.	12d\L	.	.	.	.	.
8a\)	.	.	.	.	.	8f#/)	.
.	.	12c\J	.	.	.	.	.
=163	=163	=163	=163	=163	=163	=163	=163
(8a\L	.	4G/ 4B/	.	12r	.	8r	.
.	.	.	.	12a/L	.	.	.
8g\)	.	.	.	.	.	(8g\L	.
.	.	.	.	12g/J	.	.	.
8g\	.	12r	.	4B/	.	8b\	.
.	.	12G/L	.	.	.	.	.
8g\J	.	.	.	.	.	8dd\J	.
.	.	12F/J	.	.	.	.	.
8g\L	.	4E/	.	12r	.	8gg\L)	.
.	.	.	.	12a/L	.	.	.
(8g\	.	.	.	.	.	(8gg\	.
.	.	.	.	12g/J	.	.	.
8a\	.	12r	.	4c/	.	8aa\	.
.	.	12d\L	.	.	.	.	.
8b-\J)	.	.	.	.	.	8bb-\J)	.
.	.	12c\J	.	.	.	.	.
=164	=164	=164	=164	=164	=164	=164	=164
(4..b-\	<	4E/	.	12r	.	(4..bb-\	<
.	.	.	.	12a/L	<	.	.
.	.	.	.	12g/J	.	.	.
.	.	12r	<	4c/	.	.	.
.	.	12d\L	.	.	.	.	.
.	.	12c\J	.	.	.	.	.
16a\)	.	.	.	.	.	16aa\)	.
(4g#'\	.	4E/	.	12r	.	(4gg#'\	.
.	.	.	.	12d/L	.	.	.
.	.	.	.	12c/J	.	.	.
4g#'\)	.	12r	.	4c/	.	4gg#'\)	.
.	.	12d\L	.	.	.	.	.
.	.	12c\J	.	.	.	.	.
=165	=165	=165	=165	=165	=165	=165	=165
(4b-\	.	4F/	.	12r	.	(4bb-\	.
.	.	.	.	12dd\L	>	.	.
.	.	.	.	12cc\J	.	.	.
8a\L	>	12r	>	4fn/	.	8aa\L	>
.	.	12d\L	.	.	.	.	.
8gn\J	.	.	.	.	.	8ggn\J	.
.	.	12c\J	.	.	.	.	.
4fn\	.	4F/ 4A/	.	12r	.	4ffn\	.
.	.	.	.	12dd\L	.	.	.
.	.	.	.	12cc\J	.	.	.
8g\L	.	12r	.	4f/	.	8gg\L	.
.	.	12d\L	.	.	.	.	.
8a\J)	.	.	.	.	.	8aa\J)	.
.	.	12c\J	.	.	.	.	.
=166	=166	=166	=166	=166	=166	=166	=166
(4.g\	p	4G/ 4e/	p	12r	.	(4.gg\	p
.	.	.	.	12dd\L	p	.	.
.	.	.	.	12cc\J	.	.	.
.	.	12r	.	4e/	.	.	.
.	.	12d\L	.	.	.	.	.
8e\)	.	.	.	.	.	8ee\)	.
.	.	12c\J	.	.	.	.	.
(4.f\	.	4G/	.	12r	.	(4.ff\	.
.	.	.	.	12cc\L	.	.	.
.	.	.	.	12b\J	.	.	.
.	.	12r	.	4f/	.	.	.
.	.	12e\L	.	.	.	.	.
8Bn\)	.	.	.	.	.	8bn\)	.
.	.	12d\J	.	.	.	.	.
=167	=167	=167	=167	=167	=167	=167	=167
*clefF4	*clefF4	*	*	*	*	*	*
(4.GG/	.	(4.G/	.	12r	.	(16ee\LL	.
.	.	.	.	.	.	16b\	.
.	.	.	.	12dd\L	.	.	.
.	.	.	.	.	.	16cc\	.
.	.	.	.	12cc\J	.	.	.
.	.	.	.	.	.	16dd\JJ	.
.	.	.	.	4e/	.	16ee\LL	.
.	.	.	.	.	.	16ff\	.
8EE/)	.	8E/)	.	.	.	16ff#\	.
.	.	.	.	.	.	16gg\JJ	.
(8FF/L	.	(8F/L	.	12r	.	16aa\LL	.
.	.	.	.	.	.	16gg\	.
.	.	.	.	12cc\L	.	.	.
8DD/	.	8D/	.	.	.	16ff#\	.
.	.	.	.	12b\J	.	.	.
.	.	.	.	.	.	16gg\JJ	.
8F/	.	8f/	.	(8d/L	.	16aa\LL	.
.	.	.	.	.	.	16gg\	.
8BB/J)	.	8B/J)	.	16ff\L	.	16aa\	.
.	.	.	.	16dd\JJ)	.	16ffn\JJ)	.
=168	=168	=168	=168	=168	=168	=168	=168
4C/	.	(8c\L	.	(4cc/	.	(4ee\	.
.	.	16d\L	.	.	.	.	.
.	.	16c\JJ	.	.	.	.	.
*	*	*	*	*^	*	*	*
4r	.	8B\L	.	4f/	2.G\	.	4dd\	.
.	.	16c\L	.	.	.	.	.	.
.	.	16d\JJ	.	.	.	.	.	.
(8c\L	.	8e\L	.	4e/	.	.	4cc\	.
16d\L	.	16f\L	.	.	.	.	.	.
16c\JJ	.	16e\JJ	.	.	.	.	.	.
8B\L	.	8d\L	.	4f/)	.	.	4g/)	.
16c\L	.	16e\L	.	.	.	.	.	.
16d\JJ)	.	16f\JJ)	.	.	.	.	.	.
*	*	*	*	*v	*v	*	*	*
=169	=169	=169	=169	=169	=169	=169	=169
(4e\	.	(4g\	.	4G/	.	(8cc\L	.
.	.	.	.	.	.	16dd\L	.
.	.	.	.	.	.	16cc\JJ	.
4d\	.	4f\	.	(8g\L	.	8b\L	.
.	.	.	.	16a\L	.	16cc\L	.
.	.	.	.	16b\JJ	.	16dd\JJ	.
4c\	.	4e\	.	8cc\L	.	8ee\L	.
.	.	.	.	16dd\L	.	16ff\L	.
.	.	.	.	16cc\JJ	.	16ee\JJ	.
4G\)	.	4d\)	.	8b\L	.	8dd\L	.
.	.	.	.	16cc\L	.	16ee\L	.
.	.	.	.	16dd\JJ)	.	16ff\JJ)	.
=170	=170	=170	=170	=170	=170	=170	=170
4r	<	8C\L 8c\	<	8ee/L	<	[4gg\	<
.	.	(16c\L	.	[8e/J	.	.	.
.	.	16d\JJ	.	.	.	.	.
4C/	.	8e\L	.	(16e/LL]	.	8gg\L]	.
.	.	.	.	16G/	.	.	.
.	.	16f\L	.	16e/	.	(16gg\L	.
.	.	16g\JJ	.	16d/JJ)	.	16ff\JJ	.
4r	.	8a\L)	.	8c/L	.	[4ee\)	.
.	.	(16a\L	.	[8cc/J	.	.	.
.	.	16b\JJ	.	.	.	.	.
4CC/	.	[4cc\)	.	(16cc/LL]	.	8ee\L]	.
.	.	.	.	16c/	.	.	.
.	.	.	.	16cc/	.	(16eee\L	.
.	.	.	.	16b/JJ)	.	16ddd\JJ	.
=171	=171	=171	=171	=171	=171	=171	=171
4r	.	(16cc\LL]	.	8a\L	.	[4ccc\)	.
.	.	16c\	.	.	.	.	.
.	.	16d\	.	[8aa\J	.	.	.
.	.	16e\JJ)	.	.	.	.	.
4F\	.	[4f\	.	(16aa\LL]	.	8ccc\L]	.
.	.	.	.	16a\	.	.	.
.	.	.	.	16aa\	.	(16ccc\L	.
.	.	.	.	16gg\JJ	.	16bb\JJ	.
4r	.	(16f\LL]	.	16ff\LL	.	16aa\LL	.
.	.	16d\	.	16gg\	.	16bb\	.
.	.	16e\	.	16ff\	.	16aa\	.
.	.	16f\JJ)	.	16ee\JJ	.	16gg\JJ	.
4GG/	.	8g'\L	.	16dd\LL	.	16ff\LL	.
.	.	.	.	16cc#\	.	16ee\	.
.	.	8G'\J	.	16dd\	.	16ff\	.
.	.	.	.	16b\JJ)	.	16dd\JJ)	.
=172	=172	=172	=172	=172	=172	=172	=172
(8CC/L	p	(4g\	p	(4ee\	p	[1gg	p
16d\L	.	.	.	.	.	.	.
16c\JJ	.	.	.	.	.	.	.
8B\L	.	4f\	.	4dd\	.	.	.
16c\L	.	.	.	.	.	.	.
16d\JJ)	.	.	.	.	.	.	.
*clefC4	*clefC4	*	*	*	*	*	*
(8e\L	.	8e\L	.	4ccn\	.	.	.
16f\L	.	16d\L	.	.	.	.	.
16e\JJ	.	16c\JJ	.	.	.	.	.
8d\L	.	8B\L	.	4g/)	.	.	.
16e\L	.	16c\L	.	.	.	.	.
16f\JJ)	.	16d\JJ)	.	.	.	.	.
=173	=173	=173	=173	=173	=173	=173	=173
(4e\	.	(4G/	.	(8cc\L	.	4gg\]	.
.	.	.	.	16dd\L	.	.	.
.	.	.	.	16cc\JJ	.	.	.
4d\	.	4F/	.	8b\L	.	(8gg\L	.
.	.	.	.	16cc\L	.	16aa\L	.
.	.	.	.	16dd\JJ	.	16bb\JJ	.
4c\	.	4E/	.	8ee\L	.	4ccc\	.
.	.	.	.	16ff\L	.	.	.
.	.	.	.	16ee\JJ	.	.	.
8.G/L	.	8F/L	.	8dd\L	.	8bb\L	.
.	.	16E/L	.	16ee\L	.	16ccc\L	.
16F/Jk)	.	16D/JJ)	.	16ff\JJ)	.	16ddd\JJ)	.
=174	=174	=174	=174	=174	=174	=174	=174
(8E/L	<	(8C/L	<	8gg\L	<	[4eee\	<
*clefF4	*clefF4	*	*	*	*	*	*
16C/L	.	16E/L	.	[8g\J	.	.	.
16D/JJ	.	16F/JJ	.	.	.	.	.
8E\L	.	8G/L	.	(16g/LL]	.	8eee\L]	.
.	.	.	.	16G/	.	.	.
16F\L	.	16A/L	.	16g/	.	16eee\L	.
16G\JJ	.	16B/JJ	.	16f/JJ)	.	16ddd\JJ	.
8A\L)	.	8c\L)	.	8e\L	.	[4ccc\	.
(16A\L	.	(16c\L	.	[8ee\J	.	.	.
16B\JJ	.	16d\JJ	.	.	.	.	.
[4c\)	.	[4e\)	.	(16ee\LL]	.	8ccc\L]	.
.	.	.	.	16e\	.	.	.
.	.	.	.	16ee\	.	(16ccc\L	.
.	.	.	.	16dd\JJ)	.	16bb\JJ	.
=175	=175	=175	=175	=175	=175	=175	=175
(8c\L]	.	(8e\L]	.	(8cc/L	.	(8aa\L)	.
16d\L	.	16f\L	.	[8a/J)	.	[8cc\J)	.
16e\JJ	.	16g\JJ	.	.	.	.	.
[4f\)	.	[4a\)	.	16a/LL]	.	16cc/LL]	.
.	.	.	.	(16A/	.	(16c/	.
.	.	.	.	16a/	.	16cc/	.
.	.	.	.	16g/JJ)	.	16b/JJ)	.
8f\L]	.	8a\L]	.	16f/LL	.	16a/LL	.
.	.	.	.	16gg\	.	16b/	.
8FF/	.	8A\	.	16ff\	.	16a/	.
.	.	.	.	16ee\JJ	.	16g/JJ	.
8F\	.	8A\	.	16dd\LL	.	16f/LL	.
.	.	.	.	16cc\	.	16e/	.
8F\J	.	8A\J	.	16b\	.	16d/	.
.	.	.	.	16a\JJ	.	16c/JJ	.
=176	=176	=176	=176	=176	=176	=176	=176
16F/LL	f	16d/LL	f	16g/LL	f	16B/LL	f
16E/	.	16c/	.	16a/	.	16c/	.
16D/	.	16B/	.	16b/	.	16d/	.
16C/JJ	.	16A/JJ	.	16cc/JJ	.	16e/JJ	.
16BB/LL	.	16G/LL	.	16dd\LL	.	16f/LL	.
16C/	.	16A/	.	16cc\	.	16e/	.
16D/	.	16B/	.	16b\	.	16d/	.
16E/JJ	.	16c/JJ	.	16a\JJ	.	16c/JJ	.
16F/LL	.	16d/LL	.	16g\LL	.	16B/LL	.
16E/	.	16c/	.	16a\	.	16c/	.
16D/	.	16B/	.	16b\	.	16d/	.
16C/JJ	.	16A/JJ	.	16cc\JJ	.	16e/JJ	.
16BB/LL	.	16G/LL	.	16dd\LL	.	16f/LL	.
16AA/	.	16F/	.	16ee\	.	16g/	.
16GG/	.	16E/	.	16ff\	.	16a/	.
16FF/JJ	.	16D/JJ	.	16gg\JJ	.	16b/JJ	.
=177	=177	=177	=177	=177	=177	=177	=177
16EE/LL	.	16C/LL	.	4gg\	.	4cc\	.
16FF/	.	16D/	.	.	.	.	.
16GG/	.	16E/	.	.	.	.	.
16AA/JJ	.	16F/JJ	.	.	.	.	.
16BB/LL	.	16G/LL	.	4r	.	4r	.
16C/	.	16A/	.	.	.	.	.
16D/	.	16B/	.	.	.	.	.
16E/JJ	.	16c/JJ	.	.	.	.	.
[2AA/	ff	[2F#/	ff	16ccc\LL	ff	16dd\LL	ff
.	.	.	.	16bb\	.	16ee\	.
.	.	.	.	16aa\	.	16ff#\	.
.	.	.	.	16gg\JJ	.	16gg\JJ	.
.	.	.	.	16ff#\LL	.	16aa\LL	.
.	.	.	.	16ee\	.	16bb\	.
.	.	.	.	16dd\	.	16ccc\	.
.	.	.	.	16cc\JJ	.	16ddd\JJ	.
=178	=178	=178	=178	=178	=178	=178	=178
4AA/]	p	4F#/]	p	4cc\	p	(16ddd\LL	p
.	.	.	.	.	.	16ccc\	.
.	.	.	.	.	.	16bb\	.
.	.	.	.	.	.	16ccc\JJ	.
(4AA/	.	(4F#/	.	(4d/ 4cc/	.	16bb\LL	.
.	.	.	.	.	.	16ccc\	.
.	.	.	.	.	.	16bb\	.
.	.	.	.	.	.	16aa\JJ)	.
4BB/	.	4G/	.	4d/	.	(16aa\LL	.
.	.	.	.	.	.	16gg\	.
.	.	.	.	.	.	16ff#\	.
.	.	.	.	.	.	16gg\JJ)	.
4D/	.	4Fn/	.	4B/) 4g/	.	(16gg\LL	.
.	.	.	.	.	.	16ffn\	.
.	.	.	.	.	.	16ee\	.
.	.	.	.	.	.	16dd\JJ)	.
=179	=179	=179	=179	=179	=179	=179	=179
4E/)	.	4G/)	.	4c/ 4g/	.	(16dd\LL	.
.	.	.	.	.	.	16cc\	.
.	.	.	.	.	.	16b\	.
.	.	.	.	.	.	16cc\JJ	.
4r	.	(4f#\	.	(4ff#\	.	16b\LL	.
.	.	.	.	.	.	16cc\	.
.	.	.	.	.	.	16b\	.
.	.	.	.	.	.	16a\JJ)	.
*^	*	*	*	*	*	*	*
(4E/	2GG\	.	4g\	.	4gg\	.	(16a/LL	.
.	.	.	.	.	.	.	16g/	.
.	.	.	.	.	.	.	16f#/	.
.	.	.	.	.	.	.	16g/JJ)	.
4D/)	.	.	4b\)	.	4bb\)	.	(16g/LL	.
.	.	.	.	.	.	.	16fn/	.
.	.	.	.	.	.	.	16e/	.
.	.	.	.	.	.	.	16d/JJ)	.
*v	*v	*	*	*	*	*	*	*
=180	=180	=180	=180	=180	=180	=180	=180
(16D/LL	.	(16dd\LL	.	(16ddd\LL	.	4c/	.
16C/	.	16cc\	.	16ccc\	.	.	.
16BB/	.	16b\	.	16bb\	.	.	.
16C/JJ	.	16cc\JJ	.	16ccc\JJ	.	.	.
16BB/LL	.	16b\LL	.	16bb\LL	.	(4ff#\	.
16C/	<	16cc\	<	16ccc\	<	.	.
16BB/	.	16b\	.	16bb\	.	.	.
16AA/JJ)	.	16a\JJ)	.	16aa\JJ)	.	.	.
(16AA/LL	.	(16a\LL	.	(16aa\LL	.	4gg\	<
16GG/	.	16g\	.	16gg\	.	.	.
16FF#/	.	16f#\	.	16ff#\	.	.	.
16GG/JJ)	.	16g\JJ)	.	16gg\JJ)	.	.	.
(16GG/LL	.	(16g\LL	.	(16gg\LL	.	4bb\)	.
16FFn/	.	16fn\	.	16ffn\	.	.	.
16EE/	.	16e\	.	16ee\	.	.	.
16DD/JJ)	.	16d\JJ)	.	16dd\JJ)	.	.	.
=181	=181	=181	=181	=181	=181	=181	=181
(16FF/LL	.	(16f\LL	.	(16ff\LL	.	(16bb\LL	.
16EE/	.	16e\	.	16ee\	.	16ccc\	.
16DD/	.	16d\	.	16dd\	.	16ddd\	.
16CC/JJ)	.	16c\JJ)	.	16cc\JJ)	.	16eee\JJ)	.
(16C/LL	.	(16c/LL	.	(16cc\LL	.	(16ee\LL	.
16BB/	.	16B/	.	16b\	.	16ffn\	.
16AA/	.	16A/	.	16a\	.	16gg\	.
16GG/JJ)	.	16G/JJ)	.	16g\JJ)	.	16aa\JJ)	.
4G\	.	(16c/LL	.	(16e/LL	.	(16gg\LL	.
.	.	16B/	.	16f/	.	16aa\	.
.	.	16A/	.	16g/	.	16bb\	.
.	.	16G/JJ	.	16a/JJ	.	16ccc\JJ	.
4GG/	.	16F/LL	.	16b\LL	.	16ddd\LL	.
.	.	16E/	.	16cc\	.	16eee\	.
.	.	16D/	.	16dd\	.	16fff\	.
.	.	16d/JJ)	.	16ff\JJ)	.	16bb\JJ)	.
=182	=182	=182	=182	=182	=182	=182	=182
(8.C/L	.	(8.G/L	f	(8.ee/L	f	(8.ccc\L	f
16D/Jk)	f	16F/Jk)	.	16f/Jk)	.	16bb\Jk)	.
(8.F\L	.	(8.F/L	.	(8.b/L	.	(8.aa-\L	.
16A-\Jk)	.	16A-/Jk)	.	16d/Jk)	.	16ff\Jk)	.
(8.B\L	.	(8.f\L	.	(8.a-/L	.	(8.dd\L	.
16d\Jk)	.	16d\Jk)	.	16f/Jk)	.	16b\Jk)	.
(8.B\L	.	(8.f\L	.	(8.dd\L	.	(8.aa-\L	.
16c\Jk)	.	16e\Jk)	.	16ee\Jk)	.	16gg\Jk)	.
=183	=183	=183	=183	=183	=183	=183	=183
(2FF#/	f	(2c/	p	(2e-/	p	(2an/	p
2GG/)	.	2D/)	.	2B/)	.	2g/)	.
=184	=184	=184	=184	=184	=184	=184	=184
(8.C/L	f	(8.E/L	f	(8.en/L	f	(8.g/L	f
16BB/Jk)	.	16D/Jk)	.	16f/Jk)	.	16a-/Jk)	.
(8.AA-/L	.	(8.F/L	.	(8.d/L	.	(8.b\L	.
16FF/Jk)	.	16D/Jk)	.	16f/Jk)	.	16dd\Jk)	.
(8.DD/L	.	(8.A-/L	.	(8.f/L	.	(8.ff\L	.
16BB/Jk)	.	16F/Jk)	.	16a-/Jk)	.	16ddd\Jk)	.
(8.A-\L	.	(8.F/L	.	(8.dd\L	.	(8.bb\L	.
16G\Jk)	.	16E/Jk)	.	16cc\Jk)	.	16ccc\Jk)	.
=185	=185	=185	=185	=185	=185	=185	=185
(2An\	p	(2e-\	p	(2cc\	p	(2ff#\	p
2G\)	.	2cc\)	.	2c/) 2en/	.	2gg\)	.
=186	=186	=186	=186	=186	=186	=186	=186
(2F#\	.	2cc\	.	2e-/	.	[2aan\	.
2G\)	.	2F/ 2d/	.	2b\	.	(8aa\L]	.
.	.	.	.	.	.	8b\	.
.	.	.	.	.	.	8aa\	.
.	.	.	.	.	.	8gg\J)	.
=187	=187	=187	=187	=187	=187	=187	=187
2FF#/	.	2E-/	.	2c/	.	[2aa\	.
2GG/	.	2D/ 2G/	.	2f/ 2b/	.	8aa\L]	.
.	.	.	.	.	.	(8G/	.
.	.	.	.	.	.	8fn/	.
.	.	.	.	.	.	8d/J)	.
=188	=188	=188	=188	=188	=188	=188	=188
8C/	p	8E/ 8G/	.	8c/	p	8e/	p
8r	.	8r	.	8r	.	8r	.
8AA/	.	8D/	.	8c/	.	8f#/	.
8r	.	8r	.	8r	.	8r	.
8GG/	.	8E/	.	8c/	.	8g/	.
8r	.	8r	.	8r	.	8r	.
8GG/	f	8F/	f	8d/	f	8b/	f
8r	.	8r	.	8r	.	8r	.
=189	=189	=189	=189	=189	=189	=189	=189
4r	.	4r	.	4r	.	4r	.
4GG#/	p	4F/	p	4d/	p	4b/	p
2r	.	2r	.	2r	.	2r	.
=190	=190	=190	=190	=190	=190	=190	=190
4r	.	4r	.	4r	.	4r	.
8GG#/	.	8F/	.	8d/	.	8b\	.
8r	.	8r	.	8r	.	8r	.
8AA/	.	8E/	.	8c/	.	8cc\	.
8r	.	8r	.	8r	.	8r	.
8G\	f	8B-/	f	8e/	.	8cc#\	f
8r	.	8r	.	8r	.	8r	.
=191	=191	=191	=191	=191	=191	=191	=191
4r	.	4r	.	4r	.	4r	.
4g\	p	4G/ 4B-/	p	4b-\	p	4cc#\	p
2r	.	2r	.	2r	.	2r	.
=192	=192	=192	=192	=192	=192	=192	=192
8G\	<	8b-\	<	8e/	<	8cc#\	<
8r	.	8r	.	8r	.	8r	.
8F#\	.	8a\	.	8A/	.	8dd\	.
8r	.	8r	.	8r	.	8r	.
8Fn\	.	8A/	.	8a/	.	8dd#\	.
8r	.	8r	.	8r	.	8r	.
8E\	.	8Bn/	.	8g#/	.	8ee\	.
8r	.	8r	.	8r	.	8r	.
=193	=193	=193	=193	=193	=193	=193	=193
(1GG#	p	(1B	p	(1dd	p	(1ff	p
=194	=194	=194	=194	=194	=194	=194	=194
1AA)	.	1c)	.	[1cc)	.	1ee)	.
=195	=195	=195	=195	=195	=195	=195	=195
(1F	.	(2c/	.	(4cc\]	.	(1d#	p
.	.	.	.	8.a/L	.	.	.
.	.	.	.	16bn/Jk	.	.	.
.	.	4A/	.	4cc/	.	.	.
.	.	4B/)	.	8.b/L	.	.	.
.	.	.	.	16a/Jk)	.	.	.
=196	=196	=196	=196	=196	=196	=196	=196
1E)	.	(4c/	.	(4a/	.	1e)	.
.	.	2B/	.	2g#/	.	.	.
.	.	4E/)	.	4G#/)	.	.	.
=197	=197	=197	=197	=197	=197	=197	=197
(1D#	.	4r	.	1A	.	1r	.
.	.	(8.F/L	.	.	.	.	.
.	.	16G/Jk	.	.	.	.	.
.	.	4A/	.	.	.	.	.
.	.	8.G/L	.	.	.	.	.
.	.	16F/Jk)	.	.	.	.	.
=198	=198	=198	=198	=198	=198	=198	=198
1E)	.	(4F/	.	2G#/	.	1r	.
.	.	2E/)	.	.	.	.	.
.	.	.	.	[2cc\	.	.	.
.	.	(4g#\	.	.	.	.	.
=199	=199	=199	=199	=199	=199	=199	=199
(1F	.	4a\	.	(4cc\]	.	(1dd#	.
.	.	8.cc\L	.	8.a/L	.	.	.
.	.	16b\Jk	.	16b/Jk	.	.	.
.	.	4a\	.	4cc/	.	.	.
.	.	8.b\L	.	8.b/L	.	.	.
.	.	16cc\Jk)	.	16a/Jk)	.	.	.
=200	=200	=200	=200	=200	=200	=200	=200
1E	.	(4cc\	.	(4a/	.	1ee)	.
.	.	2b\)	.	2g#/)	.	.	.
.	.	(8.B/L	.	(8.g#/L	.	.	.
.	.	16E/Jk)	.	16B/Jk)	.	.	.
=201	=201	=201	=201	=201	=201	=201	=201
1GG#	.	(4F/	.	(4B/	.	(4dddn\	.
.	.	8.D/L	.	8.d/L	.	8.bb\L	.
.	.	16E/Jk	.	16c/Jk	.	16ccc\Jk	.
.	.	4F/	.	4B/	.	4ddd\	.
.	.	8.E/L	.	8.c/L	.	8.ccc\L	.
.	.	16D/Jk)	.	16d/Jk)	.	16bb\Jk)	.
=202	=202	=202	=202	=202	=202	=202	=202
1AA)	.	(4F/	.	(4B/	.	(4ddd\	.
.	.	4E/	<	8.c/L	<	2ccc\	<
.	.	.	.	16d/Jk	.	.	.
.	.	4c/	.	4e/	.	.	.
.	.	8.B/L	.	8.d/L	.	8.ddd\L	.
.	.	16A/Jk)	.	16c/Jk)	.	16eee\Jk)	.
=203	=203	=203	=203	=203	=203	=203	=203
4AA/	<	4C/	f	4c/	f	1fff	f
(8.A\L	.	(8.c\L	.	(8.cc\L	.	.	.
16B\Jk	.	16d\Jk	.	16b\Jk	.	.	.
4c\	.	4e\	.	4a/	.	.	.
8.B\L	.	8.d\L	.	8.b\L	.	.	.
16A\Jk)	.	16c\Jk)	.	16cc\Jk)	.	.	.
=204	=204	=204	=204	=204	=204	=204	=204
(4A\	.	(4c/	.	4r	.	1eee	.
2G#\	.	2B/	.	(8.dd\L	.	.	.
.	.	.	.	16cc\Jk	.	.	.
.	.	.	.	4b\	.	.	.
8.F\L	.	8.A/L	.	8.cc\L	.	.	.
16E\Jk)	.	16G#/Jk)	.	16dd\Jk)	.	.	.
=205	=205	=205	=205	=205	=205	=205	=205
(4E\	.	(4G#/	.	4dd\	.	1gg#	.
8.F\L	.	8.A/L	.	2B/ 2d/	.	.	.
16E\Jk)	.	16G#/Jk)	.	.	.	.	.
(4E\	.	(4G#/	.	.	.	.	.
8.d\L	.	8.f\L	.	(8.b/L	.	.	.
16B\Jk)	.	16d\Jk)	.	16g#/Jk)	.	.	.
=206	=206	=206	=206	=206	=206	=206	=206
4d\	.	(4f\	>	(4b/	>	[1aa	>
2c\	.	2e\)	.	2a/)	.	.	.
4r	.	4b\	.	(8.ff\L	.	.	.
.	.	.	.	16dd#\Jk)	.	.	.
=207	=207	=207	=207	=207	=207	=207	=207
1r	.	(2.cc\	p	(4bb\	p	4aa\]	p
.	.	.	.	2ee\)	.	(8.bb-\L	.
.	.	.	.	.	.	16gg#\Jk	.
.	.	.	.	.	.	4bb-\	.
.	.	4ee\)	.	(4c#/	.	8.aa\L	.
.	.	.	.	.	.	16ee\Jk)	.
=208	=208	=208	=208	=208	=208	=208	=208
1r	.	4r	.	1dn)	.	(4ggn\	.
.	.	(8.a\L	.	.	.	2ff\)	.
.	.	16e\Jk)	.	.	.	.	.
.	.	(4gn\	.	.	.	.	.
.	.	4f\)	.	.	.	(8.bb-\L	.
.	.	.	.	.	.	16ff\Jk)	.
=209	=209	=209	=209	=209	=209	=209	=209
*clefC4	*clefC4	*	*	*	*	*	*
4r	.	2r	.	1e	.	(4aa\	.
(8.g\L	.	.	.	.	.	2gg\)	.
16B\Jk)	.	.	.	.	.	.	.
(4d\	.	4r	.	.	.	.	.
4c\)	.	4E/	.	.	.	(8.ccc\L	.
.	.	.	.	.	.	16gg\Jk)	.
=210	=210	=210	=210	=210	=210	=210	=210
*clefF4	*clefF4	*	*	*	*	*	*
4r	.	2F/	<	2f/	.	(4..bb-\	.
(8.C/L	<	.	.	.	.	.	.
16FF/Jk)	.	.	.	.	.	16aa\)	<
4r	.	2E/	.	2e/	<	(4..bbn\	.
(8.C/L	.	.	.	.	.	.	.
16EE/Jk)	.	.	.	.	.	16aa\)	.
=211	=211	=211	=211	=211	=211	=211	=211
4r	.	2D/	.	2d/	.	(4..bb\	.
(8.C/L	.	.	.	.	.	.	.
16DD/Jk)	.	.	.	.	.	16aa\)	.
4r	.	2D#/	.	2d#/	.	(4..bb\	.
(8.C/L	.	.	.	.	.	.	.
16DD#/Jk)	.	.	.	.	.	16aa\)	.
=212	=212	=212	=212	=212	=212	=212	=212
4FF'/	f	4F'/	f	4f'/	f	(16bb\LL	f
.	.	.	.	.	.	16aa\	.
.	.	.	.	.	.	16bb\	.
.	.	.	.	.	.	16aa\JJ	.
4EE'/	.	4E'/	.	4e'/	.	16bb\LL	.
.	.	.	.	.	.	16aa\	.
.	.	.	.	.	.	16bb\	.
.	.	.	.	.	.	16aa\JJ)	.
4Dn'/	.	4Dn'/	.	4dn'/	.	(16bb\LL	.
.	.	.	.	.	.	16aa\	.
.	.	.	.	.	.	16bb\	.
.	.	.	.	.	.	16aa\JJ	.
4C'/	.	4C'/ 4c'/	.	4cc'\	.	16bb\LL	.
.	.	.	.	.	.	16aa\	.
.	.	.	.	.	.	16bb\	.
.	.	.	.	.	.	16aa\JJ)	.
=213	=213	=213	=213	=213	=213	=213	=213
4BB'/	f	4B'/	f	4b'/	f	(16bb\LL	f
.	.	.	.	.	.	16aa\	.
.	.	.	.	.	.	16bb\	.
.	.	.	.	.	.	16aa\JJ	.
4AA'/	.	4A'/	.	4a'/	.	16bb\LL	.
.	.	.	.	.	.	16aa\	.
.	.	.	.	.	.	16bb\	.
.	.	.	.	.	.	16aa\JJ)	.
4GGn'/	.	4Gn'/	.	4gn'/	.	(16bb\LL	.
.	.	.	.	.	.	16aa\	.
.	.	.	.	.	.	16bb\	.
.	.	.	.	.	.	16aa\JJ	.
4FF'/	.	4F'/	.	4f'/	.	16bb\LL	.
.	.	.	.	.	.	16aa\	.
.	.	.	.	.	.	16bb\	.
.	.	.	.	.	.	16aa\JJ)	.
=214	=214	=214	=214	=214	=214	=214	=214
4EE'/	.	[2E/	.	4G#'/	.	4bb'\	.
8.r	.	.	.	4r	.	4r	.
*clefC4	*clefC4	*	*	*	*	*	*
16B\	p	.	.	.	.	.	.
4e'\	.	4..E/]	.	2r	.	2r	.
4e'\	.	.	.	.	.	.	.
.	.	16G#/	.	.	.	.	.
=215	=215	=215	=215	=215	=215	=215	=215
(4.e\	.	(4.c/	.	4r	.	1r	.
.	.	.	.	8.r	.	.	.
16d\LL	.	16B/LL	.	.	.	.	.
16c\JJ)	.	16A/JJ)	.	16cc\	p	.	.
8c'\L	.	8A'/L	.	4ff'\	.	.	.
8c'\J	.	8A'/J	.	.	.	.	.
(16c\LL	.	(16A/LL	.	4ff'\	.	.	.
16d\J	.	16B/J	.	.	.	.	.
8c\J)	.	8A/J)	.	.	.	.	.
=216	=216	=216	=216	=216	=216	=216	=216
(4c\	.	(4A/	.	(4.ff\	.	4r	.
4B\)	.	4G#/)	.	.	.	8.r	.
.	.	.	.	16ee\LL	.	.	.
.	.	.	.	16dd\JJ)	.	16bb\	p
8B'\L	.	4r	.	8dd'\L	.	4eee'\	.
8B'\J	.	.	.	8dd'\J	.	.	.
(16B\LL	.	8.r	.	(16dd\LL	.	4eee'\	.
16c\J	.	.	.	16ee\J	.	.	.
8B\J)	.	.	.	8dd\J)	.	.	.
.	.	16e\	.	.	.	.	.
=217	=217	=217	=217	=217	=217	=217	=217
*clefF4	*clefF4	*	*	*	*	*	*
(4B\	.	(4a'\	.	(4dd\	.	(4.eee\	.
4A\)	.	4a'\)	.	4cc\)	.	.	.
.	.	.	.	.	.	16ddd\LL	.
.	.	.	.	.	.	16ccc\JJ)	.
2r	.	8a\L	.	8ee\L	.	8ccc'\L	.
.	.	8a\	.	8ee\	.	8ccc'\J	.
.	.	8a\	.	8ee\	.	(16ccc\LL	.
.	.	.	.	.	.	16ddd\J	.
.	.	8a\J	.	8ee\J	.	8ccc\J)	.
=218	=218	=218	=218	=218	=218	=218	=218
4r	.	(8a\L	.	(8dd#\L	.	(8ccc\L	.
.	.	8g#\J)	.	8ee\J)	.	8bb\J)	.
8r	.	(16a\LL	.	(16cc\LL	.	4r	.
.	.	16b\J	.	16ddn\J	.	.	.
8d#'\	.	8a\J)	.	8cc\J)	.	.	.
(8d#\L	.	(8a\L	.	(8cc\L	.	4r	.
8e\J)	.	8g#\J)	.	8b\J)	.	.	.
4r	.	8r	.	8r	.	(16ccc\LL	.
.	.	.	.	.	.	16ddd\J	.
.	.	8a\	.	8dd#\	.	8ccc\J)	.
=219	=219	=219	=219	=219	=219	=219	=219
2r	.	(8.a\L	.	(8.dd#\L	.	(8.ccc\L	.
.	.	16g#\Jk)	.	16ee\Jk)	.	16bb\Jk)	.
.	.	8g#'\L	.	8ee'\L	.	8bb'\L	.
.	.	8a'\J	.	8dd#'\J	.	8ccc'\J	.
4r	.	(8.a\L	.	(8.dd#\L	.	(8.ccc\L	.
.	.	16g#\Jk)	.	16ee\Jk)	.	16bb\Jk)	.
*clefC4	*clefC4	*	*	*	*	*	*
8r	.	8g#'\L	.	8ee'\L	.	8bb'\L	.
8gn'\	.	8b-'\J	.	8ee'\J	.	8ccc'\J	.
=220	=220	=220	=220	=220	=220	=220	=220
(8.g\L	.	(8.b-\L	.	(8.ee\L	.	(8.ccc#\L	.
16f\Jk)	.	16a\Jk)	.	16ff\Jk)	.	16ddd\Jk)	.
8f'\L	.	8a'\L	.	8ff'\L	.	8ddd'\L	.
8g'\J	.	8b-'\J	.	8ee'\J	.	8ccc#'\J	.
(8.g\L	.	(8.b-\L	.	(8.ee\L	.	(8.ccc#\L	.
16f\Jk)	.	16a\Jk)	.	16ff\Jk)	.	16ddd\Jk)	.
8f'\L	.	8a'\L	.	8ff'\L	.	8ddd'\L	.
8f'\J	.	8a'\J	.	8cc\J	.	8ddd#'\J	.
=221	=221	=221	=221	=221	=221	=221	=221
(8.f\L	.	(8.a\L	.	(8.cc/L	.	(8.ddd#\L	.
16e\Jk)	.	16g#\Jk)	.	16e/Jk)	.	16eee\Jk)	.
(8.c#\L	.	8.gn\L	.	(8.b-/L	.	(8.eee\L	.
16d\Jk)	.	16f\Jk	.	16a/Jk)	.	16fff\Jk)	.
*clefF4	*clefF4	*	*	*	*	*	*
(8.d\L	.	(8.f\L	.	(8.a\L	.	(8.fff\L	.
16cn\Jk)	.	16e-\Jk)	.	16ee-\Jk)	.	16fff#\Jk)	.
(8.c\L	.	(8.e-\L	.	(8.a\L	.	(8.fff#\L	.
16B\Jk)	.	16d\Jk)	.	16ddn\Jk)	.	16ggg\Jk)	.
=222	=222	=222	=222	=222	=222	=222	=222
(8.F\L	.	(8.Bn/L	.	(8.dd\L	.	(8.ggg\L	.
16E\Jk)	.	16d/Jk)	.	16bn\Jk)	.	16ggg#\Jk)	.
(8.E\L	.	(8.B/L	.	(8.d/L	.	(8.ggg#\L	.
16D#\Jk)	.	16A/Jk)	.	16cc/Jk)	.	16aaa\Jk)	.
(8.F\L	f	(8.c\L	f	(8.a/L	f	(8.aaa\L	f
16E\Jk)	.	16a\Jk)	.	16cc/Jk)	.	16aa\Jk)	.
8E'\L	>	(8.A/L	>	(8.c/L	>	(8.ccc\L	>
8E'\J	.	.	.	.	.	.	.
.	.	16G#/Jk)	.	16d/Jk) 16e/	.	16bb\Jk)	.
=223	=223	=223	=223	=223	=223	=223	=223
1r	.	1r	.	12r	.	4r	.
.	.	.	.	12B/L	p	.	.
.	.	.	.	12A/J	.	.	.
.	.	.	.	[4e/	.	12r	.
.	.	.	.	.	.	12f#/L	p
.	.	.	.	.	.	12e/J	.
.	.	.	.	4e/_	.	12a/L	.
.	.	.	.	.	.	12b/	.
.	.	.	.	.	.	12a/J	.
.	.	.	.	12e/L]	.	4cc#\	.
.	.	.	.	12B/	.	.	.
.	.	.	.	12A/J	.	.	.
=224	=224	=224	=224	=224	=224	=224	=224
2r	.	(4..dd\	p	12e/L	.	2r	.
.	.	.	.	12A/	.	.	.
.	.	.	.	12G#/J	.	.	.
.	.	.	.	4e/	.	.	.
.	.	16cc#\)	.	.	.	.	.
(2E\	p	(4b'\	.	12r	.	8r	.
.	.	.	.	12A/L	.	.	.
.	.	.	.	.	.	(8B/L	.
.	.	.	.	12G#/J	.	.	.
.	.	4b'\)	.	4g#/	.	8c#/	.
.	.	.	.	.	.	8d/J)	.
=225	=225	=225	=225	=225	=225	=225	=225
2AA/	.	(4dd\	.	12r	.	(4d/	.
.	.	.	.	12B/L	.	.	.
.	.	.	.	12A/J	.	.	.
.	.	8cc#\L	.	4e/	.	8c#/L	.
.	.	8b\J	.	.	.	8B/J	.
4F#\	.	4a\	.	12r	.	4A/	.
.	.	.	.	12B/L	.	.	.
.	.	.	.	12A/J	.	.	.
8G#\L	.	8b\L	.	4e/	.	8B/L	.
8A\J)	.	8dd\J)	.	.	.	8c#/J)	.
=226	=226	=226	=226	=226	=226	=226	=226
(4G#\	.	(4.b\	.	12r	.	(4.B/	.
.	.	.	.	12f#/L	.	.	.
.	.	.	.	12e/J	.	.	.
2BB/	.	.	.	4ee\	.	.	.
.	.	8g#\)	.	.	.	8gg#\)	.
.	.	(4.a\	.	12r	.	(4.aa\	.
.	.	.	.	12ee\L	.	.	.
.	.	.	.	12dd#\J	.	.	.
4B\)	.	.	.	12ff#\L	.	.	.
.	.	.	.	12dd#\	.	.	.
.	.	8d#\)	.	.	.	8dd#\)	.
.	.	.	.	12a\J	.	.	.
=227	=227	=227	=227	=227	=227	=227	=227
4E\	.	4e\	.	12g#/L	.	8r	.
.	.	.	.	12e/	.	.	.
.	.	.	.	.	.	(8e/L	.
.	.	.	.	12d#/J	.	.	.
4r	.	4r	.	12c#/L	.	8g#/	.
.	.	.	.	12B/	.	.	.
.	.	.	.	.	.	8b/J	.
.	.	.	.	12A/J	.	.	.
*clefC4	*clefC4	*	*	*	*	*	*
(8d#\L	.	12r	.	4G#/	.	8dd#\L	.
.	.	12A/L	.	.	.	.	.
8e\J)	.	.	.	.	.	8ee\)	.
.	.	12G#/J	.	.	.	.	.
(8e\L	.	12F#/L	.	4r	.	(8ee\	.
.	.	12E/	.	.	.	.	.
8f#\J)	.	.	.	.	.	8ff#\J)	.
.	.	12D/J	.	.	.	.	.
=228	=228	=228	=228	=228	=228	=228	=228
(4..gn\	<	4C#/	<	12r	.	(4..ggn\	<
.	.	.	.	12B/L	<	.	.
.	.	.	.	12A/J	.	.	.
.	.	12r	.	4a/	.	.	.
.	.	12B/L	.	.	.	.	.
.	.	12A/J	.	.	.	.	.
16f#\)	.	.	.	.	.	16ff#\)	.
(4e#'\	.	4C#/	.	12r	.	(4ee#'\	.
.	.	.	.	12B/L	.	.	.
.	.	.	.	12A/J	.	.	.
4e#'\)	.	12r	.	4a/	.	4ee#'\)	.
.	.	12B/L	.	.	.	.	.
.	.	12A/J	.	.	.	.	.
=229	=229	=229	=229	=229	=229	=229	=229
(4g\	.	4D/	.	12r	>	(4gg\	.
.	.	.	.	12B/L	.	.	.
.	.	.	.	12A/J	.	.	.
8f#\L	>	12r	>	4a/	.	8ff#\L	>
.	.	12B/L	.	.	.	.	.
8en\J	.	.	.	.	.	8een\J	.
.	.	12A/J	.	.	.	.	.
4dn\	.	4f#\	.	12r	.	4ddn\	.
.	.	.	.	12B/L	.	.	.
.	.	.	.	12A/J	.	.	.
8e\L	.	12r	.	4a/	.	8ee\L	.
.	.	12B/L	.	.	.	.	.
8f#\J)	.	.	.	.	.	8ff#\J)	.
.	.	12A/J	.	.	.	.	.
=230	=230	=230	=230	=230	=230	=230	=230
(4.e\	.	4E/ 4c#/	p	12r	.	(4.ee\	.
.	.	.	.	12B/L	.	.	.
.	.	.	.	12A/J	.	.	.
.	.	12r	.	4e/	.	.	.
.	.	12B/L	.	.	.	.	.
8c#\)	.	.	.	.	.	8cc#\)	.
.	.	12A/J	.	.	.	.	.
(4.d\	.	4E/	.	12r	.	(4.dd\	.
.	.	.	.	12A/L	.	.	.
.	.	.	.	12G#/J	.	.	.
.	.	12r	.	4e/	.	.	.
.	.	12c#/L	.	.	.	.	.
8G#/)	.	.	.	.	.	8g#/)	.
.	.	12B/J	.	.	.	.	.
=231	=231	=231	=231	=231	=231	=231	=231
(4.e\	.	4E/	.	12r	.	(4.ee\	.
.	.	.	.	12B/L	.	.	.
.	.	.	.	12A/J	.	.	.
.	.	12r	.	4e/	.	.	.
.	.	12B/L	.	.	.	.	.
8cn\)	.	.	.	.	.	8cc\)	.
.	.	12A/J	.	.	.	.	.
(4.d\	.	4E/	.	12r	.	(4dd\	.
.	.	.	.	12A/L	.	.	.
.	.	.	.	12G#/J	.	.	.
.	.	12r	.	4e/	.	8ddd\L	.
.	.	12cn/L	.	.	.	.	.
8e\)	.	.	.	.	.	8gg#\J)	.
.	.	12B/J	.	.	.	.	.
=232	=232	=232	=232	=232	=232	=232	=232
1fn	pp	4Fn/	pp	4r	.	(4bb\	pp
.	.	4r	.	8r	.	8.aa\L	.
.	.	.	.	(16dd\LL	pp	.	.
.	.	.	.	16a\JJ	.	16bb\Jk	.
.	.	2r	.	16dd\LL	.	4ccc\	.
.	.	.	.	16a\	.	.	.
.	.	.	.	16dd\	.	.	.
.	.	.	.	16a\JJ	.	.	.
.	.	.	.	16dd\LL	.	8.bb\L	.
.	.	.	.	16a\	.	.	.
.	.	.	.	16dd\	.	.	.
.	.	.	.	16a\JJ)	.	16aa\Jk)	.
=233	=233	=233	=233	=233	=233	=233	=233
*clefF4	*clefF4	*	*	*	*	*	*
1r	.	1E	.	4r	.	(4aa\	.
.	.	.	.	8r	.	2gg#\	.
.	.	.	.	(16B/LL	.	.	.
.	.	.	.	16G#/JJ	.	.	.
.	.	.	.	16B/LL	.	.	.
.	.	.	.	16G#/	.	.	.
.	.	.	.	16B/	.	.	.
.	.	.	.	16G#/JJ	.	.	.
.	.	.	.	16B/LL	.	8.ffn\L	.
.	.	.	.	16G#/	.	.	.
.	.	.	.	16B/	.	.	.
.	.	.	.	16G#/JJ)	.	16ee\Jk)	.
=234	=234	=234	=234	=234	=234	=234	=234
1r	.	4r	.	1g#	.	(4ee\	.
.	.	8r	.	.	.	8.bb\L	.
.	.	(16B/LL	.	.	.	.	.
.	.	16G#/JJ	.	.	.	16ccc\Jk	.
.	.	16B/LL	.	.	.	4ddd\	.
.	.	16G#/	.	.	.	.	.
.	.	16B/	.	.	.	.	.
.	.	16G#/JJ	.	.	.	.	.
.	.	16B/LL	.	.	.	8.ccc\L	.
.	.	16G#/	.	.	.	.	.
.	.	16B/	.	.	.	.	.
.	.	16G#/JJ)	.	.	.	16bb\Jk)	.
=235	=235	=235	=235	=235	=235	=235	=235
1AA	.	4r	.	4r	.	(4ddd\	.
.	.	8r	.	8r	.	8.ccc\L	<
.	.	(16e\LL	<	(16cc\LL	<	.	.
.	.	16c\JJ	.	16a\JJ	.	16ddd\Jk	.
.	.	16e\LL	.	16cc\LL	.	4eee\	.
.	.	16c\	.	16a\	.	.	.
.	.	16e\	.	16cc\	.	.	.
.	.	16c\JJ	.	16a\JJ	.	.	.
.	.	16e\LL	.	16cc\LL	.	8.ddd\L	.
.	.	16c\	.	16a\	.	.	.
.	.	16e\	.	16cc\	.	.	.
.	.	16c\JJ)	.	16a\JJ)	.	16ccc\Jk)	.
=236	=236	=236	=236	=236	=236	=236	=236
8FF'\L	<	(16a\LL	f	(16cc/LL	f	(8.bb\L	f
.	.	16A\	.	16c/	.	.	.
(8F\	.	16c\	.	16a/	.	.	.
.	.	16A\JJ)	.	16c/JJ)	.	16gg#\Jk)	.
8E\	.	(16c/LL	.	(16a/LL	.	(16aa\LL	.
.	.	16A/	.	16c/	.	16bb\	.
8F\J	.	16c/	.	16a/	.	16aa\	.
.	.	16A/JJ)	.	16c/JJ)	.	16bb\JJ)	.
8E\L	.	(16c/LL	.	(16a/LL	.	8ccc'\L	.
.	.	16A/	.	16c/	.	.	.
8F\)	.	16c/	.	16a/	.	8ccc'\J	.
.	.	16A/JJ	.	16c/JJ	.	.	.
8f'\	.	16c/LL	.	16a/LL	.	(16bb\LL	.
.	.	16A/	.	16c/	.	16aa\	.
8F'\J	.	16c/	.	16a/	.	16bb\	.
.	.	16A/JJ)	.	16c/JJ)	.	16aa\JJ)	.
=237	=237	=237	=237	=237	=237	=237	=237
8EE'\L	.	16c\LL	.	(16a/LL	.	(4aa\	.
.	.	16A\	.	16c/	.	.	.
(8E\	.	16c\	.	16a/	.	.	.
.	.	16A\JJ	.	16c/JJ)	.	.	.
8D#\	.	(16g#\LL	.	(16b/LL	.	2gg#\)	.
.	.	16B\	.	16g#/	.	.	.
8E\J	.	16g#\	.	16b/	.	.	.
.	.	16B\JJ	.	16g#/JJ	.	.	.
8D#\L	.	16g#\LL	.	16b/LL	.	.	.
.	.	16B\	.	16g#/	.	.	.
8E\)	.	16g#\	.	16b/	.	.	.
.	.	16B\JJ	.	16g#/JJ	.	.	.
8e'\	.	16g#\LL	.	16b/LL	.	(16ff\LL	.
.	.	16B\	.	16g#/	.	16dd#\	.
8E'\J	.	16g#\	.	16b/	.	16ff\	.
.	.	16B\JJ)	.	16g#/JJ)	.	16ee\JJ)	.
=238	=238	=238	=238	=238	=238	=238	=238
8EE'\L	.	(16g#\LL	.	(16b/LL	.	8ee'\L	.
.	.	16B\	.	16g#/	.	.	.
(8E\	.	16g#\	.	16b/	.	8ee'\J	.
.	.	16B\JJ	.	16g#/JJ	.	.	.
8D#\	.	16g#\LL	.	16b/LL	.	(16ff\LL	.
.	.	16B\	.	16g#/	.	16dd#\	.
8E\J	.	16g#\	.	16b/	.	16ff\	.
.	.	16B\JJ)	.	16g#/JJ)	.	16ee\JJ)	.
8D#\L	.	(16g#\LL	.	(16b/LL	.	8ee'\L	.
.	.	16B\	.	16g#/	.	.	.
8E\)	.	16g#\	.	16b/	.	8ee'\J	.
.	.	16B\JJ	.	16g#/JJ	.	.	.
8e'\	.	16g#\LL	.	16b/LL	.	(16dddn\LL	.
.	.	16B\	.	16g#/	.	16ee\	.
8E'\J	.	16g#\	.	16b/	.	16ddd\	.
.	.	16B\JJ)	.	16g#/JJ)	.	16bb\JJ)	.
=239	=239	=239	=239	=239	=239	=239	=239
8AA\L	.	(16a\LL	.	(16cc/LL	.	(4ddd\	.
.	.	16c\	.	16e/	.	.	.
(8A\	.	16a\	.	16cc/	.	.	.
.	.	16c\JJ	.	16e/JJ	.	.	.
8G#\	.	16a\LL	.	16cc/LL	.	2ccc\)	.
.	.	16c\	.	16e/	.	.	.
8A\J	.	16a\	.	16cc/	.	.	.
.	.	16c\JJ	.	16e/JJ	.	.	.
8G#\L	.	16a\LL	.	16cc/LL	.	.	.
.	.	16c\	.	16e/	.	.	.
8A\)	.	16a\	.	16cc/	.	.	.
.	.	16c\JJ)	.	16e/JJ)	.	.	.
8e'\	.	(16g#\LL	.	(16b/LL	.	(16ddd\LL	.
.	.	16B\	.	16g#/	.	16ee\	.
8E'\J	.	16g#\	.	16b/	.	16ddd\	.
.	.	16d\JJ)	.	16g#/JJ)	.	16bb\JJ)	.
=240	=240	=240	=240	=240	=240	=240	=240
8AA'\L	.	(16e\LL	.	16cc/LL	.	(4ddd\	.
.	.	16c\	.	(16e/	.	.	.
(8A\	.	16e\	.	16cc/	.	.	.
.	.	16c\JJ	.	16e/JJ	.	.	.
8G#\	.	16e\LL	.	16cc/LL	.	[4ccc\)	.
.	.	16c\	.	16e/	.	.	.
8A\J	.	16e\	.	16cc/	.	.	.
.	.	16c\JJ	.	16e/JJ	.	.	.
8G#\L	.	16e\LL	.	16cc/LL	.	(8ccc\L]	.
.	.	16c\	.	16e/	.	.	.
8A\)	.	16e\)	.	16cc/	.	8ee\J)	.
.	.	16c\JJ	.	16e/JJ)	.	.	.
8E'\	.	(16g#\LL	.	(16b/LL	.	(16eee\LL	.
.	.	16B\	.	16g#/	.	16ddd#\	.
8e'\J	.	16g#\	.	16b/	.	16dddn\	.
.	.	16d\JJ)	.	16g#/JJ)	.	16bb\JJ)	.
=241	=241	=241	=241	=241	=241	=241	=241
8FF'\L	.	2F/ 2A/	.	2a/	.	(4..ddd\	.
(8F\	.	.	.	.	.	.	.
8E\	.	.	.	.	.	.	.
8F\J)	.	.	.	.	.	.	.
.	.	.	.	.	.	16ccc\)	.
8f'\L	.	(16f/LL	.	2r	.	(4..bb\	.
.	.	16F/	.	.	.	.	.
(8F\	.	16f/	.	.	.	.	.
.	.	16F/JJ	.	.	.	.	.
8E\	.	16f/LL	.	.	.	.	.
.	.	16F/	.	.	.	.	.
8F\J)	.	16f/	.	.	.	.	.
.	.	16F/JJ)	.	.	.	16aa\)	.
=242	=242	=242	=242	=242	=242	=242	=242
8DD'/L	.	2r	.	(16ff/LL	.	(4..ccc\	.
.	.	.	.	16f/	.	.	.
(8D/	.	.	.	16ff/	.	.	.
.	.	.	.	16f/JJ	.	.	.
8C#/	.	.	.	16ff/LL	.	.	.
.	.	.	.	16f/	.	.	.
8D/J)	.	.	.	16ff/	.	.	.
.	.	.	.	16f/JJ)	.	16bb\)	.
8e'\L	.	(16e/LL	.	2r	.	4..aa\	.
.	.	16E/	.	.	.	.	.
(8D\	>	16e/	.	.	.	.	.
.	.	16E/JJ	.	.	.	.	.
8D#\	.	16e/LL	.	.	.	.	.
.	.	16E/	.	.	.	.	.
8E\J)	.	16e/	.	.	.	.	.
.	.	16E/JJ)	.	.	.	16gg#\	>
=243	=243	=243	=243	=243	=243	=243	=243
8CC#'/L	p	(16Gn/LL	p	(16B-/LL	>	(4..gg\	p
.	.	16E/	.	16Gn/	.	.	.
(8C#/	.	16G/	.	16A/	.	.	.
.	.	16E/JJ	.	16G/JJ	.	.	.
8AA/	.	16G/LL	.	16A/LL	.	.	.
.	.	16E/	.	16G/	.	.	.
8C#/J)	.	16G/	.	16A/	.	.	.
.	.	16E/JJ)	.	16G/JJ)	.	16ee\)	.
8d'\L	.	(16A/LL	.	(16f/LL	.	(4..ff\	.
.	.	16F/	<	16A/	<	.	.
(8D\	<	16A/	.	16f/	.	.	.
.	.	16F/JJ	.	16A/JJ	.	.	.
8C#\	.	16A/LL	.	16f/LL	.	.	.
.	.	16F/	.	16A/	.	.	.
8D\J)	.	16A/	.	16f/	.	.	.
.	.	16F/JJ)	.	16A/JJ)	.	16dd\)	<
=244	=244	=244	=244	=244	=244	=244	=244
8EE'/L	.	(16c/LL	.	(16a/LL	.	(4..cc\	.
.	.	16A/	.	16c/	.	.	.
(8E/	.	16c/	.	16a/	.	.	.
.	.	16A/JJ	.	16c/JJ	.	.	.
8D#/	.	16c/LL	.	16a/LL	.	.	.
.	.	16A/	.	16c/	.	.	.
8E/J)	.	16c/	.	16a/	.	.	.
.	.	16A/JJ)	.	16c/JJ)	.	16ee\)	.
8e'\L	.	(16B/LL	.	(16g#/LL	.	(4..b\	.
.	.	16G#/	.	16Bn/	.	.	.
(8E\	.	16B/	.	16g#/	.	.	.
.	.	16G#/JJ	.	16B/JJ	.	.	.
8D#\	.	16B/LL	.	16g#/LL	.	.	.
.	.	16G#/	.	16B/	.	.	.
8E\J)	.	16B/	.	16g#/	.	.	.
.	.	16G#/JJ)	.	16B/JJ)	.	16ee\)	.
=245	=245	=245	=245	=245	=245	=245	=245
8CC#'/L	f	(16Gn/LL	f	(16B-/LL	f	(4..b-\	f
.	.	16E/	.	16Gn/	.	.	.
(8C#/	.	16G/	.	16A/	.	.	.
.	.	16E/JJ	.	16G/JJ	.	.	.
8AA/	.	16G/LL	.	16A/LL	.	.	.
.	.	16E/	.	16G/	.	.	.
8C#/J)	.	16G/	.	16A/	.	.	.
.	.	16E/JJ)	.	16G/JJ)	.	16gg\)	.
8d\L	.	(16A/LL	.	(16f/LL	.	(4..d/	.
.	.	16F/	f	16A/	f	.	.
(8D\	f	16A/	.	16f/	.	.	.
.	.	16F/JJ	.	16A/JJ	.	.	.
8C#\	.	16A/LL	.	16f/LL	.	.	.
.	.	16F/	.	16A/	.	.	.
8D\J)	.	16A/	.	16f/	.	.	.
.	.	16F/JJ)	.	16A/JJ)	.	16ff\)	f
=246	=246	=246	=246	=246	=246	=246	=246
8EE'/L	.	(16c/LL	.	(16a/LL	.	(4..cc\	.
.	.	16A/	.	16c/	.	.	.
(8E/	.	16c/	.	16a/	.	.	.
.	.	16A/JJ)	.	16c/JJ)	.	.	.
8D#/	.	(16a\LL	.	(16cc/LL	.	.	.
.	.	16c\	.	16a/	.	.	.
8E/J)	.	16a\	.	16cc/	.	.	.
.	.	16c\JJ)	.	16a/JJ)	.	16eee\)	.
8e'\L	.	(16a\LL	.	(16cc/LL	.	(4..ggg\	.
.	.	16c\	.	16a/	.	.	.
(8E\	.	16a\	.	16cc/	.	.	.
.	.	16c\JJ)	.	16a/JJ)	.	.	.
8D#\	.	(16g#\LL	.	(16bn/LL	.	.	.
.	.	16B\	.	16g#/	.	.	.
8E\J)	.	16g#\	.	16b/	.	.	.
.	.	16B\JJ)	.	16g#/JJ)	.	16fff\)	.
=247	=247	=247	=247	=247	=247	=247	=247
*clefC4	*clefC4	*	*	*	*	*	*
4r	.	4r	.	1ff	ff	1fff	ff
(8.a\L	ff	(8.cc\L	ff	.	.	.	.
16b\Jk	.	16dd\Jk	.	.	.	.	.
4cc\	.	4ee\	.	.	.	.	.
8.b\L	.	8.dd\L	.	.	.	.	.
16a\Jk)	.	16cc\Jk)	.	.	.	.	.
=248	=248	=248	=248	=248	=248	=248	=248
(4a\	.	(4cc\	.	[1ee	.	[1eee	>
8.g#\L	>	8.b\L	>	.	.	.	.
16a\Jk	.	16cc\Jk	.	.	.	.	.
4b\	.	4dd\	.	.	.	.	.
8.a\L	.	8.cc\L	.	.	.	.	.
16g#\Jk)	.	16b\Jk)	.	.	.	.	.
=249	=249	=249	=249	=249	=249	=249	=249
[1f	p	[1a	p	(2.ee\]	>	8eee\L]	p
.	.	.	.	.	.	(8gg#\	.
.	.	.	.	.	.	8aa\	.
.	.	.	.	.	.	8bb\J	.
.	.	.	.	.	.	12ddd\L	.
.	.	.	.	.	.	12ccc\	.
.	.	.	.	.	.	12bb\J)	.
.	.	.	.	[4dd#\)	.	(12bb\L	.
.	.	.	.	.	.	12ccc\	.
.	.	.	.	.	.	12aa\J)	.
=250	=250	=250	=250	=250	=250	=250	=250
(4f\]	.	(4a\]	.	(4dd#\]	.	(4aa\	.
2e\)	.	2b\	.	[2.ee\)	.	2gg#\	.
*clefF4	*clefF4	*	*	*	*	*	*
[4c#\	.	[4b-\)	.	.	.	[4ggn\)	.
=251	=251	=251	=251	=251	=251	=251	=251
(4c#\]	.	(4b-\]	.	(4ee\]	.	(4gg\]	.
2d\	.	2a\	.	[2.ddn\)	.	2ff#\	.
[4B\)	.	[4a-\)	.	.	.	[4ffn\)	.
=252	=252	=252	=252	=252	=252	=252	=252
(8B\]	pp	(8a-\]	pp	(8dd\]	pp	(8ff\]	pp
4.c\)	.	[4.g\)	.	[4.cc\)	.	[4.ee\)	.
(8C/	pp	8g\]	pp	(8cc\]	pp	(8ee\]	pp
4.D/)	.	[4.f\	.	[4.b\)	.	[4.dd\)	.
=253	=253	=253	=253	=253	=253	=253	=253
(8DD/	.	(8f\]	.	(8b\]	.	(8dd\]	.
[4.EE/)	.	[4.e\)	.	[4.a/)	.	4.cc\	.
2EE/]	.	8e\]	.	(8a/]	.	(8cc\)	.
.	.	4.d\	.	4.g#/)	.	4.b\)	.
=254	=254	=254	=254	=254	=254	=254	=254
(16DD#/LL	.	(16F/LL	.	1r	.	1G#	.
16EE/	pp	16E/	pp	.	.	.	.
16DD#/	.	16F/	.	.	.	.	.
16EE/JJ	.	16E/JJ	.	.	.	.	.
16DD#/LL	.	16F/LL	.	.	.	.	.
16EE/	.	16E/	.	.	.	.	.
16DD#/	.	16F/	.	.	.	.	.
16EE/JJ	.	16E/JJ	.	.	.	.	.
16DD#/LL	.	16F/LL	.	.	.	.	.
16EE/	.	16E/	.	.	.	.	.
16DD#/	.	16F/	.	.	.	.	.
16EE/JJ	.	16E/JJ	.	.	.	.	.
16DD#/LL	.	16F/LL	.	.	.	.	.
16EE/	.	16E/	.	.	.	.	.
16DD#/	.	16F/	.	.	.	.	.
16EE/JJ)	.	16E/JJ)	.	.	.	.	.
=255	=255	=255	=255	=255	=255	=255	=255
(16DD#/LL	.	(16F/LL	.	1g#	pp	1bb	pp
16EE/	.	16E/	.	.	.	.	.
16DD#/	.	16F/	.	.	.	.	.
16EE/JJ	.	16E/JJ	.	.	.	.	.
16DD#/LL	.	16F/LL	.	.	.	.	.
16EE/	.	16E/	.	.	.	.	.
16DD#/	.	16F/	.	.	.	.	.
16EE/JJ	.	16E/JJ	.	.	.	.	.
16DD#/LL	.	16F/LL	.	.	.	.	.
16EE/	.	16E/	.	.	.	.	.
16DD#/	.	16F/	.	.	.	.	.
16EE/JJ	.	16E/JJ	.	.	.	.	.
16DD#/LL	.	16F/LL	.	.	.	.	.
16EE/	.	16E/	.	.	.	.	.
16DD#/	.	16F/	.	.	.	.	.
16EE/JJ)	.	16E/JJ)	.	.	.	.	.
=256	=256	=256	=256	=256	=256	=256	=256
(16DD#/LL	.	(16F/LL	.	(16b/LL	.	1ddd	.
16EE/	.	16E/	.	16g#/	.	.	.
16DD#/	.	16F/	.	16b/	.	.	.
16EE/JJ	.	16E/JJ	.	16g#/JJ	.	.	.
16DD#/LL	.	16F/LL	.	16b/LL	.	.	.
16EE/	.	16E/	.	16g#/	.	.	.
16DD#/	.	16F/	.	16b/	.	.	.
16EE/JJ	.	16E/JJ	.	16g#/JJ	.	.	.
16DD#/LL	.	16F/LL	.	16b/LL	.	.	.
16EE/	.	16E/	.	16g#/	.	.	.
16DD#/	.	16F/	.	16b/	.	.	.
16EE/JJ	.	16E/JJ	.	16g#/JJ	.	.	.
16DD#/LL	.	16F/LL	.	16b/LL	.	.	.
16EE/	.	16E/	.	16g#/	.	.	.
16DD#/	.	16F/	.	16b/	.	.	.
16EE/JJ)	.	16E/JJ)	.	16g#/JJ)	.	.	.
=257	=257	=257	=257	=257	=257	=257	=257
16DD#/LL	.	(16g#\LL	<	1b 1gg#	.	(16ff\LL	.
(16EE/	<	16B\	.	.	.	16ee\	<
16DD#/	.	16g#\	.	.	.	16ff\	.
16EE/JJ	.	16B\JJ	.	.	.	16ee\JJ	.
16DD#/LL	.	16g#\LL	.	.	.	16ff\LL	.
16EE/	.	16B\	.	.	.	16ee\	.
16DD#/	.	16g#\	.	.	.	16ff\	.
16EE/JJ	.	16B\JJ	.	.	.	16ee\JJ	.
16DD#/LL	.	16g#\LL	.	.	.	16ff\LL	.
16EE/	.	16B\	.	.	.	16ee\	.
16DD#/	.	16g#\	.	.	.	16ff\	.
16EE/JJ	.	16B\JJ	.	.	.	16ee\JJ	.
16DD#/LL	.	16g#\LL	.	.	.	16ff\LL	.
16EE/	.	16B\	.	.	.	16ee\	.
16DD#/	.	16g#\	.	.	.	16ff\)	.
16EE/JJ)	.	16B\JJ)	.	.	.	16ee\JJ	.
=258	=258	=258	=258	=258	=258	=258	=258
4AA'/	f	4A'/	f	4a'\ 4aa'\	<	(16b\LL	f
.	.	.	.	.	.	16a\	.
.	.	.	.	.	.	16cc\	.
.	.	.	.	.	.	16a\JJ)	.
4GGn'/	.	4Gn'/ 4A'/	.	4a'\ 4aa'\	.	(16b-\LL	.
.	.	.	.	.	.	16a\	.
.	.	.	.	.	.	16cc#\	.
.	.	.	.	.	.	16a\JJ)	.
4FF#'/	.	4F#'/ 4A'/	.	4a'\ 4aa'\	.	(16b-\LL	.
.	.	.	.	.	.	16a\	.
.	.	.	.	.	.	16dd\	.
.	.	.	.	.	.	16a\JJ)	.
4FFn'/	.	4Fn'/ 4A'/	.	4a'\ 4aa'\	.	(16bn\LL	.
.	.	.	.	.	.	16a\	.
.	.	.	.	.	.	16dd\	.
.	.	.	.	.	.	16a\JJ)	.
=259	=259	=259	=259	=259	=259	=259	=259
4EE'/	.	4E'/ 4A'/	.	(8.aa\L	.	(16b\LL	.
.	.	.	.	.	.	16a\	.
.	.	.	.	.	.	16ee\	.
.	.	.	.	16bb\Jk)	.	16a\JJ)	.
4EE'/	.	(2e\	.	2ccc\	.	(16b\LL	.
.	.	.	.	.	.	16a\	.
.	.	.	.	.	.	16aa\	.
.	.	.	.	.	.	16a\JJ)	.
4E'\	.	.	.	.	.	(16dd\LL	.
.	.	.	.	.	.	16ccn\	.
.	.	.	.	.	.	16aa\	.
.	.	.	.	.	.	16cc\JJ)	.
4EE'/	.	8g#\)	.	4bb\	.	(16cc\LL	.
.	.	.	.	.	.	16b\	.
.	.	8r	.	.	.	16gg#\	.
.	.	.	.	.	.	16b\JJ)	.
=260	=260	=260	=260	=260	=260	=260	=260
4AA'/	.	4A'/	.	4a'\ 4aa'\	.	(16B-/LL	.
.	.	.	.	.	.	16A/	.
.	.	.	.	.	.	16c#/	.
.	.	.	.	.	.	16A/JJ)	.
4GGn'/	.	4Gn'/ 4A'/	.	4a'\ 4aa'\	.	(16B-/LL	.
.	.	.	.	.	.	16A/	.
.	.	.	.	.	.	16c#/	.
.	.	.	.	.	.	16A/JJ)	.
4FF#'/	.	4F#'/ 4A'/	.	4a'\ 4aa'\	.	(16B-/LL	.
.	.	.	.	.	.	16A/	.
.	.	.	.	.	.	16d/	.
.	.	.	.	.	.	16A/JJ)	.
4FFn'/	.	4Fn'/ 4A'/	.	4a'\ 4aa'\	.	(16Bn/LL	.
.	.	.	.	.	.	16A/	.
.	.	.	.	.	.	16d/	.
.	.	.	.	.	.	16A/JJ)	.
=261	=261	=261	=261	=261	=261	=261	=261
4EE'/	.	4E'/ 4A'/	.	(8.aa\L	.	(16B/LL	.
.	.	.	.	.	.	16A/	.
.	.	.	.	.	.	16a/	.
.	.	.	.	16bb\Jk)	.	16A/JJ)	.
4EE'/	.	(2e\	.	2ccc\	.	(16B/LL	.
.	.	.	.	.	.	16A/	.
.	.	.	.	.	.	16a/	.
.	.	.	.	.	.	16A/JJ)	.
4E\	.	.	.	.	.	(16d/LL	.
.	.	.	.	.	.	16cn/	.
.	.	.	.	.	.	16cc/	.
.	.	.	.	.	.	16c/JJ)	.
4e'\	.	4g#\)	.	4bb\	.	(16f/LL	.
.	.	.	.	.	.	16e/	.
.	.	.	.	.	.	16ee/	.
.	.	.	.	.	.	16e/JJ)	.
=262	=262	=262	=262	=262	=262	=262	=262
4A'\	.	4e'\ 4a'\	.	4cc'\ 4aa'\	.	16ee/	.
.	.	.	.	.	.	16ee\	.
.	.	.	.	.	.	16ee/	.
.	.	.	.	.	.	16ee\	.
4r	.	4r	.	4r	.	16ee/	.
.	.	.	.	.	.	16ee\	.
.	.	.	.	.	.	16ee/	.
.	.	.	.	.	.	16ee\	.
4E\	.	4g#'\	.	4b'\ 4bb'\	.	16ee/	.
.	.	.	.	.	.	16ee\	.
.	.	.	.	.	.	16ee/	.
.	.	.	.	.	.	16ee\	.
4r	.	4r	.	4r	.	16ee/	.
.	.	.	.	.	.	16ee\	.
.	.	.	.	.	.	(16gg#\LL	.
.	.	.	.	.	.	16ee\JJ)	.
=263	=263	=263	=263	=263	=263	=263	=263
4A'\	.	4a'\	.	4cc'\ 4ccc'\	.	16ee/	.
.	.	.	.	.	.	16ee\	.
.	.	.	.	.	.	16ee/	.
.	.	.	.	.	.	16ee\	.
4r	.	4r	.	4r	.	16ee/	.
.	.	.	.	.	.	16ee\	.
.	.	.	.	.	.	(16aa\LL	.
.	.	.	.	.	.	16ee\JJ)	.
4E\	.	4g#'\ 4b'\	.	4eee'\	.	16ee/	.
.	.	.	.	.	.	16ee\	.
.	.	.	.	.	.	16ee/	.
.	.	.	.	.	.	16ee\	.
4r	.	4r	.	4r	.	16ee/	.
.	.	.	.	.	.	16ee\	.
.	.	.	.	.	.	(16eee\LL	.
.	.	.	.	.	.	16gg#\JJ)	.
=264	=264	=264	=264	=264	=264	=264	=264
4AA'/	.	4A'/	.	4c'/ 4e'/ 4a'/	.	4e'\ 4cc'\ 4aa'\	.
4r	.	4r	.	4r	.	4r	.
2r;	.	2r;	.	2r;	.	2r;	.
==	==	==	==	==	==	==	==
*-	*-	*-	*-	*-	*-	*-	*-
!!!ENC: Don Anthony
!!!END: 2006/08//
!!!ONB: Converted to Humdrum by Craig Sapp 2006/08/18/ from MusicXML
